;FLAVOR:Marlin
;TIME:18662
;Filament used: 13.813m
;Layer height: 0.2
;MINX:51.702
;MINY:87.311
;MINZ:0.2
;MAXX:168.299
;MAXY:161.256
;MAXZ:28.6
;Generated with Cura_SteamEngine 4.4.1
M140 S60
M105
M190 S60
M104 S200
M105
M109 S200
M82 ;absolute extrusion mode
M201 X500.00 Y500.00 Z100.00 E5000.00 ;Setup machine max acceleration
M203 X500.00 Y500.00 Z10.00 E50.00 ;Setup machine max feedrate
M204 P500.00 R1000.00 T500.00 ;Setup Print/Retract/Travel acceleration
M205 X8.00 Y8.00 Z0.40 E5.00 ;Setup Jerk
M220 S100 ;Reset Feedrate
M221 S100 ;Reset Flowrate

G28 ;Home

G92 E0 ;Reset Extruder
G1 Z2.0 F3000 ;Move Z Axis up
G1 X10.1 Y20 Z0.28 F5000.0 ;Move to start position
G1 X10.1 Y200.0 Z0.28 F1500.0 E15 ;Draw the first line
G1 X10.4 Y200.0 Z0.28 F5000.0 ;Move to side a little
G1 X10.4 Y20 Z0.28 F1500.0 E30 ;Draw the second line
G92 E0 ;Reset Extruder
G1 Z2.0 F3000 ;Move Z Axis up

G92 E0
G92 E0
G1 F1500 E-6.5
;LAYER_COUNT:143
;LAYER:0
M107
G0 F6000 X57.129 Y88.842 Z0.2
;TYPE:SKIRT
G1 F1500 E0
G1 F1200 X57.957 Y88.401 E0.0312
G1 X58.819 Y88.032 E0.06239
G1 X59.71 Y87.738 E0.09359
G1 X60.622 Y87.52 E0.12478
G1 X61.549 Y87.382 E0.15595
G1 X62.403 Y87.324 E0.18442
G1 X62.723 Y87.315 E0.19507
G1 X63.032 Y87.311 E0.20535
G1 X156.592 Y87.311 E3.31717
G1 X156.75 Y87.312 E3.32242
G1 X157.448 Y87.322 E3.34564
G1 X158.384 Y87.376 E3.37682
G1 X159.312 Y87.508 E3.408
G1 X160.226 Y87.72 E3.43921
G1 X161.118 Y88.009 E3.47039
G1 X161.983 Y88.372 E3.50159
G1 X162.813 Y88.808 E3.53278
G1 X163.604 Y89.313 E3.56399
G1 X164.348 Y89.884 E3.59518
G1 X165.041 Y90.516 E3.62638
G1 X165.678 Y91.204 E3.65756
G1 X166.253 Y91.945 E3.68876
G1 X166.764 Y92.731 E3.71994
G1 X167.206 Y93.559 E3.75116
G1 X167.575 Y94.421 E3.78235
G1 X167.87 Y95.311 E3.81353
G1 X168.088 Y96.223 E3.84472
G1 X168.228 Y97.151 E3.87593
G1 X168.286 Y98.012 E3.90464
G1 X168.295 Y98.332 E3.91528
G1 X168.299 Y98.641 E3.92556
G1 X168.299 Y102.73 E4.06156
G1 X168.298 Y102.888 E4.06682
G1 X168.288 Y103.586 E4.09003
G1 X168.234 Y104.522 E4.12122
G1 X168.102 Y105.45 E4.15239
G1 X167.89 Y106.364 E4.1836
G1 X167.601 Y107.256 E4.21479
G1 X167.238 Y108.121 E4.24599
G1 X166.802 Y108.951 E4.27717
G1 X166.508 Y109.429 E4.29584
G1 X165.944 Y110.295 E4.33021
G1 X164.497 Y112.575 E4.42002
G1 X163.239 Y114.687 E4.50179
G1 X161.985 Y116.931 E4.58729
G1 X160.838 Y119.131 E4.66981
G1 X159.724 Y121.423 E4.75457
G1 X158.699 Y123.695 E4.83747
G1 X157.718 Y126.038 E4.92195
G1 X156.811 Y128.391 E5.00582
G1 X155.979 Y130.753 E5.08912
G1 X155.215 Y133.13 E5.17216
G1 X154.507 Y135.564 E5.25647
G1 X153.875 Y137.995 E5.34001
G1 X153.313 Y140.44 E5.42345
G1 X152.809 Y142.941 E5.50831
G1 X152.389 Y145.41 E5.59161
G1 X152.036 Y147.883 E5.67469
G1 X151.74 Y150.495 E5.76213
G1 X151.67 Y151.201 E5.78572
G1 X151.538 Y152.13 E5.81693
G1 X151.327 Y153.044 E5.84813
G1 X151.039 Y153.936 E5.87931
G1 X150.676 Y154.801 E5.91051
G1 X150.241 Y155.632 E5.94171
G1 X149.737 Y156.422 E5.97287
G1 X149.026 Y157.332 E6.01128
G1 X148.913 Y157.462 E6.01701
G1 X148.268 Y158.143 E6.04821
G1 X147.568 Y158.767 E6.0794
G1 X146.816 Y159.329 E6.11062
G1 X146.02 Y159.824 E6.1418
G1 X145.185 Y160.25 E6.17298
G1 X144.316 Y160.603 E6.20417
G1 X143.42 Y160.881 E6.23538
G1 X142.504 Y161.082 E6.26657
G1 X141.574 Y161.204 E6.29776
G1 X140.808 Y161.244 E6.32328
G1 X140.249 Y161.254 E6.34187
G1 X140.05 Y161.256 E6.34849
G1 X133.246 Y161.255 E6.57479
G1 X83.78 Y161.256 E8.22004
G1 X83.622 Y161.255 E8.22529
G1 X82.924 Y161.245 E8.24851
G1 X81.988 Y161.191 E8.27969
G1 X81.06 Y161.059 E8.31087
G1 X80.146 Y160.847 E8.34208
G1 X79.254 Y160.558 E8.37326
G1 X78.389 Y160.195 E8.40446
G1 X77.559 Y159.759 E8.43565
G1 X76.768 Y159.254 E8.46686
G1 X76.024 Y158.683 E8.49805
G1 X75.331 Y158.051 E8.52925
G1 X74.764 Y157.443 E8.5569
G1 X74.642 Y157.302 E8.5631
G1 X74.059 Y156.568 E8.59428
G1 X73.541 Y155.786 E8.62548
G1 X73.091 Y154.963 E8.65667
G1 X72.713 Y154.105 E8.68786
G1 X72.409 Y153.217 E8.71908
G1 X72.134 Y152.054 E8.75882
G1 X72.089 Y151.804 E8.76727
G1 X72.061 Y151.643 E8.77271
G1 X71.716 Y149.549 E8.84329
G1 X71.244 Y147.115 E8.92576
G1 X70.696 Y144.66 E9.00942
G1 X70.068 Y142.176 E9.09464
G1 X69.392 Y139.794 E9.17699
G1 X68.635 Y137.385 E9.26098
G1 X67.804 Y134.98 E9.34561
G1 X66.919 Y132.64 E9.42882
G1 X65.963 Y130.311 E9.51255
G1 X64.949 Y128.027 E9.59567
G1 X63.848 Y125.724 E9.68057
G1 X62.709 Y123.506 E9.7635
G1 X61.497 Y121.301 E9.84719
G1 X60.217 Y119.122 E9.93124
G1 X58.886 Y116.994 E10.01472
G1 X57.498 Y114.911 E10.09798
G1 X56.037 Y112.846 E10.18211
G1 X54.439 Y110.72 E10.27057
G1 X53.968 Y110.103 E10.29639
G1 X53.432 Y109.334 E10.32756
G1 X52.962 Y108.522 E10.35877
G1 X52.564 Y107.672 E10.38998
G1 X52.239 Y106.793 E10.42115
G1 X51.991 Y105.888 E10.45236
G1 X51.82 Y104.966 E10.48355
G1 X51.717 Y103.747 E10.52424
G1 X51.707 Y103.402 E10.53572
G1 X51.702 Y103.083 E10.54633
G1 X51.702 Y98.985 E10.68263
G1 X51.703 Y98.82 E10.68812
G1 X51.713 Y98.155 E10.71024
G1 X51.767 Y97.218 E10.74146
G1 X51.901 Y96.29 E10.77264
G1 X52.113 Y95.376 E10.80385
G1 X52.402 Y94.484 E10.83504
G1 X52.767 Y93.62 E10.86623
G1 X53.203 Y92.79 E10.89742
G1 X53.709 Y92 E10.92862
G1 X54.28 Y91.256 E10.95981
G1 X54.912 Y90.563 E10.99101
G1 X55.601 Y89.927 E11.02219
G1 X56.342 Y89.352 E11.05339
G1 X57.129 Y88.842 E11.08458
G0 F6000 X57.508 Y89.085
G1 F1200 X58.329 Y88.669 E11.11519
G1 X59.183 Y88.325 E11.14581
G1 X60.063 Y88.056 E11.17642
G1 X60.964 Y87.865 E11.20705
G1 X61.878 Y87.753 E11.23768
G1 X62.414 Y87.724 E11.25553
G1 X62.734 Y87.715 E11.26618
G1 X63.032 Y87.711 E11.27609
G1 X156.592 Y87.711 E14.38791
G1 X156.744 Y87.712 E14.39297
G1 X157.442 Y87.722 E14.41619
G1 X158.361 Y87.775 E14.4468
G1 X159.272 Y87.908 E14.47742
G1 X160.168 Y88.119 E14.50804
G1 X161.042 Y88.407 E14.53865
G1 X161.889 Y88.77 E14.5693
G1 X162.7 Y89.205 E14.59991
G1 X163.47 Y89.709 E14.63051
G1 X164.194 Y90.278 E14.66114
G1 X164.866 Y90.908 E14.69178
G1 X165.481 Y91.593 E14.7224
G1 X166.034 Y92.329 E14.75302
G1 X166.521 Y93.11 E14.78363
G1 X166.938 Y93.931 E14.81426
G1 X167.283 Y94.785 E14.84489
G1 X167.552 Y95.665 E14.8755
G1 X167.744 Y96.566 E14.90614
G1 X167.857 Y97.479 E14.93673
G1 X167.886 Y98.023 E14.95485
G1 X167.895 Y98.343 E14.9655
G1 X167.899 Y98.641 E14.97541
G1 X167.899 Y102.73 E15.11141
G1 X167.898 Y102.882 E15.11647
G1 X167.888 Y103.58 E15.13969
G1 X167.835 Y104.499 E15.1703
G1 X167.702 Y105.41 E15.20093
G1 X167.491 Y106.306 E15.23154
G1 X167.203 Y107.18 E15.26215
G1 X166.84 Y108.027 E15.2928
G1 X166.173 Y109.21 E15.33797
G1 X165.577 Y110.126 E15.37432
G1 X164.184 Y112.321 E15.46078
G1 X162.858 Y114.547 E15.54696
G1 X161.662 Y116.689 E15.62856
G1 X160.468 Y118.978 E15.71442
G1 X159.377 Y121.22 E15.79735
G1 X158.323 Y123.555 E15.88256
G1 X157.348 Y125.888 E15.96666
G1 X156.436 Y128.251 E16.05091
G1 X155.597 Y130.635 E16.13496
G1 X154.833 Y133.011 E16.21798
G1 X154.125 Y135.448 E16.30238
G1 X153.482 Y137.918 E16.38727
G1 X152.917 Y140.377 E16.47119
G1 X152.417 Y142.86 E16.55543
G1 X151.997 Y145.323 E16.63854
G1 X151.636 Y147.857 E16.72367
G1 X151.348 Y150.4 E16.80879
G1 X151.272 Y151.162 E16.83426
G1 X151.142 Y152.073 E16.86487
G1 X150.933 Y152.97 E16.8955
G1 X150.647 Y153.845 E16.92612
G1 X150.286 Y154.692 E16.95674
G1 X149.852 Y155.504 E16.98736
G1 X149.35 Y156.276 E17.01799
G1 X148.724 Y157.07 E17.05162
G1 X148.611 Y157.2 E17.05735
G1 X147.978 Y157.868 E17.08796
G1 X147.288 Y158.478 E17.11859
G1 X146.549 Y159.027 E17.14921
G1 X145.765 Y159.509 E17.17982
G1 X144.941 Y159.921 E17.21046
G1 X144.085 Y160.26 E17.24108
G1 X143.203 Y160.524 E17.2717
G1 X142.302 Y160.71 E17.3023
G1 X141.387 Y160.818 E17.33295
G1 X140.801 Y160.844 E17.35246
G1 X140.242 Y160.854 E17.37105
G1 X140.05 Y160.856 E17.37744
G1 X133.246 Y160.855 E17.60374
G1 X83.78 Y160.856 E19.24899
G1 X83.628 Y160.855 E19.25404
G1 X82.93 Y160.845 E19.27726
G1 X82.011 Y160.792 E19.30788
G1 X81.1 Y160.659 E19.3385
G1 X80.204 Y160.448 E19.36911
G1 X79.33 Y160.16 E19.39972
G1 X78.483 Y159.797 E19.43037
G1 X77.672 Y159.362 E19.46098
G1 X76.902 Y158.858 E19.49159
G1 X76.178 Y158.289 E19.52222
G1 X75.506 Y157.659 E19.55285
G1 X75.066 Y157.182 E19.57444
G1 X74.944 Y157.041 E19.58064
G1 X74.372 Y156.319 E19.61127
G1 X73.866 Y155.55 E19.64189
G1 X73.427 Y154.741 E19.67251
G1 X73.061 Y153.896 E19.70313
G1 X72.77 Y153.023 E19.73374
G1 X72.528 Y151.983 E19.76925
G1 X72.483 Y151.733 E19.7777
G1 X72.456 Y151.578 E19.78294
G1 X72.116 Y149.514 E19.85251
G1 X71.627 Y146.99 E19.93802
G1 X71.089 Y144.58 E20.02015
G1 X70.463 Y142.107 E20.105
G1 X69.762 Y139.637 E20.19039
G1 X69.019 Y137.271 E20.27288
G1 X68.184 Y134.856 E20.35787
G1 X67.292 Y132.496 E20.44178
G1 X66.328 Y130.146 E20.52626
G1 X65.312 Y127.857 E20.60956
G1 X64.207 Y125.547 E20.69472
G1 X63.058 Y123.309 E20.7784
G1 X61.858 Y121.127 E20.86122
G1 X60.558 Y118.913 E20.94662
G1 X59.215 Y116.766 E21.03085
G1 X57.825 Y114.68 E21.11422
G1 X56.355 Y112.603 E21.19885
G1 X54.757 Y110.477 E21.28731
G1 X54.286 Y109.86 E21.31313
G1 X53.76 Y109.105 E21.34373
G1 X53.301 Y108.306 E21.37438
G1 X52.913 Y107.471 E21.405
G1 X52.6 Y106.606 E21.4356
G1 X52.362 Y105.716 E21.46624
G1 X52.202 Y104.81 E21.49684
G1 X52.116 Y103.735 E21.53271
G1 X52.106 Y103.39 E21.54419
G1 X52.102 Y103.083 E21.5544
G1 X52.102 Y98.985 E21.6907
G1 X52.103 Y98.826 E21.69599
G1 X52.113 Y98.161 E21.71811
G1 X52.167 Y97.242 E21.74873
G1 X52.3 Y96.331 E21.77935
G1 X52.512 Y95.435 E21.80997
G1 X52.801 Y94.56 E21.84062
G1 X53.165 Y93.715 E21.87122
G1 X53.6 Y92.904 E21.90183
G1 X54.105 Y92.133 E21.93249
G1 X54.674 Y91.41 E21.96309
G1 X55.304 Y90.738 E21.99373
G1 X55.99 Y90.124 E22.02435
G1 X56.726 Y89.572 E22.05495
G1 X57.508 Y89.085 E22.08559
G0 F6000 X57.885 Y89.334
G1 F1200 X58.699 Y88.943 E22.11562
G1 X59.544 Y88.624 E22.14566
G1 X60.414 Y88.382 E22.1757
G1 X61.302 Y88.218 E22.20573
G1 X62.425 Y88.124 E22.24321
G1 X62.745 Y88.115 E22.25386
G1 X63.032 Y88.111 E22.26341
G1 X156.592 Y88.111 E25.37523
G1 X156.738 Y88.112 E25.38008
G1 X157.436 Y88.122 E25.4033
G1 X158.338 Y88.175 E25.43335
G1 X159.231 Y88.307 E25.46338
G1 X160.109 Y88.518 E25.49341
G1 X160.965 Y88.806 E25.52345
G1 X161.792 Y89.168 E25.55348
G1 X162.584 Y89.603 E25.58353
G1 X163.335 Y90.105 E25.61357
G1 X164.038 Y90.672 E25.64361
G1 X164.688 Y91.299 E25.67365
G1 X165.28 Y91.981 E25.70369
G1 X165.81 Y92.712 E25.73372
G1 X166.272 Y93.488 E25.76376
G1 X166.665 Y94.301 E25.79379
G1 X166.983 Y95.146 E25.82382
G1 X167.226 Y96.016 E25.85386
G1 X167.391 Y96.904 E25.88391
G1 X167.486 Y98.034 E25.92162
G1 X167.495 Y98.354 E25.93227
G1 X167.499 Y98.641 E25.94182
G1 X167.499 Y102.73 E26.07782
G1 X167.498 Y102.876 E26.08267
G1 X167.488 Y103.574 E26.10589
G1 X167.435 Y104.476 E26.13594
G1 X167.303 Y105.369 E26.16597
G1 X167.092 Y106.247 E26.196
G1 X166.804 Y107.103 E26.22604
G1 X166.442 Y107.93 E26.25607
G1 X165.838 Y108.992 E26.2967
G1 X165.206 Y109.963 E26.33523
G1 X163.835 Y112.123 E26.42033
G1 X162.524 Y114.326 E26.50559
G1 X161.301 Y116.515 E26.58899
G1 X160.111 Y118.797 E26.67459
G1 X159.011 Y121.059 E26.75825
G1 X157.961 Y123.385 E26.84313
G1 X156.982 Y125.726 E26.92753
G1 X156.062 Y128.111 E27.01255
G1 X155.226 Y130.485 E27.09626
G1 X154.442 Y132.924 E27.18147
G1 X153.739 Y135.34 E27.26516
G1 X153.093 Y137.825 E27.35056
G1 X152.527 Y140.288 E27.43461
G1 X152.024 Y142.785 E27.51933
G1 X151.6 Y145.27 E27.60318
G1 X151.242 Y147.788 E27.68777
G1 X150.947 Y150.39 E27.77487
G1 X150.874 Y151.122 E27.79933
G1 X150.745 Y152.016 E27.82938
G1 X150.538 Y152.895 E27.85941
G1 X150.254 Y153.752 E27.88944
G1 X149.895 Y154.581 E27.91949
G1 X149.464 Y155.375 E27.94953
G1 X148.964 Y156.127 E27.97957
G1 X148.422 Y156.808 E28.00852
G1 X148.309 Y156.938 E28.01425
G1 X147.687 Y157.592 E28.04427
G1 X147.01 Y158.189 E28.07429
G1 X146.282 Y158.724 E28.10434
G1 X145.51 Y159.193 E28.13438
G1 X144.699 Y159.591 E28.16443
G1 X143.857 Y159.916 E28.19445
G1 X142.989 Y160.165 E28.22448
G1 X142.102 Y160.336 E28.25453
G1 X140.793 Y160.444 E28.29821
G1 X140.234 Y160.454 E28.31681
G1 X140.051 Y160.456 E28.32289
G1 X133.247 Y160.455 E28.5492
G1 X83.78 Y160.456 E30.19447
G1 X83.634 Y160.455 E30.19933
G1 X82.936 Y160.445 E30.22255
G1 X82.034 Y160.392 E30.2526
G1 X81.141 Y160.26 E30.28262
G1 X80.263 Y160.049 E30.31266
G1 X79.407 Y159.761 E30.3427
G1 X78.58 Y159.399 E30.37272
G1 X77.788 Y158.964 E30.40278
G1 X77.037 Y158.462 E30.43282
G1 X76.334 Y157.895 E30.46286
G1 X75.684 Y157.268 E30.4929
G1 X75.369 Y156.92 E30.50851
G1 X75.247 Y156.779 E30.51471
G1 X74.686 Y156.071 E30.54476
G1 X74.191 Y155.315 E30.57481
G1 X73.765 Y154.519 E30.60484
G1 X73.41 Y153.689 E30.63487
G1 X73.131 Y152.83 E30.6649
G1 X72.921 Y151.912 E30.69623
G1 X72.876 Y151.662 E30.70468
G1 X72.851 Y151.513 E30.7097
G1 X72.51 Y149.445 E30.77941
G1 X72.023 Y146.932 E30.86455
G1 X71.471 Y144.458 E30.94886
G1 X70.852 Y142.013 E31.03274
G1 X70.152 Y139.546 E31.11804
G1 X69.392 Y137.126 E31.2024
G1 X68.56 Y134.72 E31.28708
G1 X67.665 Y132.351 E31.3713
G1 X66.699 Y129.997 E31.45593
G1 X65.673 Y127.685 E31.54006
G1 X64.573 Y125.385 E31.62486
G1 X63.413 Y123.127 E31.70929
G1 X62.187 Y120.896 E31.79396
G1 X60.909 Y118.72 E31.8779
G1 X59.554 Y116.554 E31.96287
G1 X58.157 Y114.457 E32.04668
G1 X56.669 Y112.354 E32.13236
G1 X55.075 Y110.234 E32.22058
G1 X54.604 Y109.617 E32.2464
G1 X54.089 Y108.876 E32.27641
G1 X53.641 Y108.092 E32.30645
G1 X53.264 Y107.271 E32.33649
G1 X52.961 Y106.42 E32.36654
G1 X52.734 Y105.546 E32.39657
G1 X52.586 Y104.655 E32.42661
G1 X52.516 Y103.724 E32.45767
G1 X52.506 Y103.379 E32.46915
G1 X52.502 Y103.083 E32.47899
G1 X52.502 Y98.985 E32.61529
G1 X52.503 Y98.832 E32.62038
G1 X52.513 Y98.167 E32.6425
G1 X52.567 Y97.265 E32.67256
G1 X52.7 Y96.372 E32.70258
G1 X52.911 Y95.494 E32.73262
G1 X53.2 Y94.638 E32.76267
G1 X53.563 Y93.811 E32.79271
G1 X53.997 Y93.02 E32.82272
G1 X54.5 Y92.269 E32.85278
G1 X55.068 Y91.567 E32.88281
G1 X55.695 Y90.917 E32.91285
G1 X56.377 Y90.325 E32.94289
G1 X57.109 Y89.796 E32.97293
G1 X57.885 Y89.334 E33.00296
G1 F1500 E26.50296
G0 F6000 X62.041 Y103.594
G0 X80.638 Y126.926
G0 X81.142 Y127.43
G0 X83.156 Y127.769
G1 F1500 E33.00296
G1 F1200 X86.952 Y127.769 E33.12922
G1 X86.958 Y129.394 E33.18327
G1 X86.819 Y129.37 E33.18796
G1 X86.784 Y129.367 E33.18913
G1 X85.82 Y129.367 E33.22119
G1 X85.731 Y129.388 E33.22423
G1 X85.375 Y129.566 E33.23747
G1 X85.304 Y129.625 E33.24054
G1 X84.41 Y130.816 E33.29007
G1 X84.37 Y130.936 E33.29428
G1 X84.37 Y132.213 E33.33675
G1 X84.401 Y132.32 E33.34046
G1 X84.933 Y133.157 E33.37344
G1 X84.985 Y133.212 E33.37596
G1 X85.703 Y133.73 E33.40541
G1 X85.789 Y133.766 E33.40851
G1 X86.932 Y133.945 E33.44699
G1 X86.957 Y133.941 E33.44783
G1 X86.949 Y142.503 E33.7326
G1 X86.862 Y142.485 E33.73556
G1 X86.822 Y142.481 E33.7369
G1 X86.252 Y142.481 E33.75585
G1 X86.182 Y142.494 E33.75822
G1 X85.233 Y142.85 E33.79193
G1 X85.138 Y142.924 E33.79594
G1 X84.513 Y143.841 E33.83285
G1 X84.481 Y143.917 E33.83559
G1 X84.226 Y145.274 E33.88152
G1 X84.235 Y145.379 E33.88502
G1 X84.371 Y145.755 E33.89832
G1 X84.431 Y145.841 E33.90181
G1 X85.75 Y146.933 E33.95876
G1 X85.878 Y146.979 E33.96329
G1 X86.372 Y146.979 E33.97972
G1 X86.377 Y146.98 E33.97989
G1 X86.418 Y146.984 E33.98126
G1 X86.948 Y146.984 E33.99888
G1 X86.948 Y150.056 E34.10106
G1 X83.156 Y150.056 E34.22718
G1 X83.156 Y127.769 E34.96845
G0 F6000 X83.556 Y128.169
G1 F1200 X86.553 Y128.169 E35.06813
G1 X86.556 Y128.967 E35.09467
G1 X85.82 Y128.967 E35.11915
G1 X85.552 Y129.03 E35.12831
G1 X85.196 Y129.208 E35.14155
G1 X84.984 Y129.385 E35.15073
G1 X84.09 Y130.576 E35.20026
G1 X83.993 Y130.771 E35.20751
G1 X83.97 Y130.936 E35.21305
G1 X83.97 Y132.213 E35.25552
G1 X84.01 Y132.428 E35.26279
G1 X84.064 Y132.535 E35.26678
G1 X84.596 Y133.372 E35.29977
G1 X84.751 Y133.537 E35.3073
G1 X85.469 Y134.055 E35.33674
G1 X85.727 Y134.161 E35.34602
G1 X86.556 Y134.291 E35.37393
G1 X86.55 Y142.081 E35.63303
G1 X86.252 Y142.081 E35.64294
G1 X86.041 Y142.119 E35.65007
G1 X85.092 Y142.475 E35.68378
G1 X84.905 Y142.588 E35.69105
G1 X84.807 Y142.699 E35.69597
G1 X84.182 Y143.616 E35.73288
G1 X84.088 Y143.843 E35.74105
G1 X83.833 Y145.2 E35.78698
