;FLAVOR:Marlin
;TIME:2364
;Filament used: 1.22825m
;Layer height: 0.2
;MINX:72.492
;MINY:78.739
;MINZ:0.2
;MAXX:147.183
;MAXY:152.111
;MAXZ:9.4
;Generated with Cura_SteamEngine 4.4.1
M140 S60
M105
M190 S60
M104 S200
M105
M109 S200
M82 ;absolute extrusion mode
M201 X500.00 Y500.00 Z100.00 E5000.00 ;Setup machine max acceleration
M203 X500.00 Y500.00 Z10.00 E50.00 ;Setup machine max feedrate
M204 P500.00 R1000.00 T500.00 ;Setup Print/Retract/Travel acceleration
M205 X8.00 Y8.00 Z0.40 E5.00 ;Setup Jerk
M220 S100 ;Reset Feedrate
M221 S100 ;Reset Flowrate

G28 ;Home

G92 E0 ;Reset Extruder
G1 Z2.0 F3000 ;Move Z Axis up
G1 X10.1 Y20 Z0.28 F5000.0 ;Move to start position
G1 X10.1 Y200.0 Z0.28 F1500.0 E15 ;Draw the first line
G1 X10.4 Y200.0 Z0.28 F5000.0 ;Move to side a little
G1 X10.4 Y20 Z0.28 F1500.0 E30 ;Draw the second line
G92 E0 ;Reset Extruder
G1 Z2.0 F3000 ;Move Z Axis up

G92 E0
G92 E0
G1 F1500 E-6.5
;LAYER_COUNT:47
;LAYER:0
M107
G0 F6000 X108.417 Y82.452 Z0.2
;TYPE:SKIRT
G1 F1500 E0
G1 F1200 X108.519 Y82.351 E0.00477
G1 X109.023 Y81.86 E0.02818
G1 X109.722 Y81.235 E0.05936
G1 X110.472 Y80.671 E0.09058
G1 X111.267 Y80.174 E0.12176
G1 X112.102 Y79.746 E0.15297
G1 X112.97 Y79.391 E0.18416
G1 X113.865 Y79.11 E0.21536
G1 X114.78 Y78.908 E0.24652
G1 X115.71 Y78.784 E0.27773
G1 X116.647 Y78.739 E0.30893
G1 X117.584 Y78.775 E0.34012
G1 X118.515 Y78.89 E0.37132
G1 X119.432 Y79.084 E0.40249
G1 X120.33 Y79.356 E0.4337
G1 X121.201 Y79.703 E0.46489
G1 X122.04 Y80.123 E0.49609
G1 X122.84 Y80.612 E0.52728
G1 X123.44 Y81.046 E0.55191
G1 X123.823 Y81.343 E0.56803
G1 X124.392 Y81.817 E0.59266
G1 X125.771 Y83.043 E0.65403
G1 X127.699 Y84.664 E0.73781
G1 X129.683 Y86.238 E0.82204
G1 X131.679 Y87.731 E0.90494
G1 X133.759 Y89.196 E0.98956
G1 X135.846 Y90.582 E1.07289
G1 X138.017 Y91.935 E1.15797
G1 X139.376 Y92.739 E1.21049
G1 X141.242 Y93.821 E1.28223
G1 X142.032 Y94.325 E1.3134
G1 X142.601 Y94.752 E1.33706
G1 X142.787 Y94.901 E1.34499
G1 X143.494 Y95.518 E1.3762
G1 X144.145 Y96.193 E1.40739
G1 X144.718 Y96.896 E1.43755
G1 X144.926 Y97.174 E1.4491
G1 X145.455 Y97.948 E1.48028
G1 X145.916 Y98.765 E1.51148
G1 X146.307 Y99.618 E1.54269
G1 X146.623 Y100.501 E1.57389
G1 X146.816 Y101.206 E1.5982
G1 X146.871 Y101.436 E1.60606
G1 X147.05 Y102.356 E1.63724
G1 X147.15 Y103.289 E1.66845
G1 X147.171 Y103.81 E1.68579
G1 X147.181 Y104.407 E1.70565
G1 X147.183 Y104.591 E1.71177
G1 X147.183 Y112.582 E1.97755
G1 X147.182 Y112.727 E1.98237
G1 X147.171 Y113.561 E2.01011
G1 X147.146 Y114.168 E2.03032
G1 X147.121 Y114.533 E2.04249
G1 X147.022 Y115.432 E2.07257
G1 X146.976 Y115.735 E2.08276
G1 X146.812 Y116.588 E2.11165
G1 X146.729 Y116.943 E2.12378
G1 X146.451 Y117.926 E2.15776
G1 X146.324 Y118.306 E2.17108
G1 X146.055 Y119.025 E2.19662
G1 X145.971 Y119.228 E2.20392
G1 X145.619 Y119.994 E2.23196
G1 X145.432 Y120.363 E2.24572
G1 X144.996 Y121.144 E2.27547
G1 X144.888 Y121.32 E2.28234
G1 X144.589 Y121.78 E2.30059
G1 X144.474 Y121.948 E2.30736
G1 X144.197 Y122.335 E2.32319
G1 X144.068 Y122.507 E2.33034
G1 X143.525 Y123.175 E2.35897
G1 X143.231 Y123.509 E2.37377
G1 X142.306 Y124.441 E2.41744
G1 X141.532 Y125.133 E2.45197
G1 X141.344 Y125.298 E2.46029
G1 X140.291 Y126.198 E2.50637
G1 X138.476 Y127.839 E2.58775
G1 X136.627 Y129.609 E2.67288
G1 X134.863 Y131.396 E2.7564
G1 X133.143 Y133.241 E2.84029
G1 X131.494 Y135.113 E2.92327
G1 X129.87 Y137.064 E3.0077
G1 X128.326 Y139.03 E3.09084
G1 X126.805 Y141.083 E3.17582
G1 X125.389 Y143.113 E3.25814
G1 X123.984 Y145.253 E3.34329
G1 X122.95 Y146.913 E3.40834
G1 X122.421 Y147.687 E3.43952
G1 X121.827 Y148.413 E3.47072
G1 X121.174 Y149.086 E3.50191
G1 X120.466 Y149.701 E3.5331
G1 X119.708 Y150.253 E3.56429
G1 X118.906 Y150.739 E3.59548
G1 X118.065 Y151.155 E3.62668
G1 X117.192 Y151.497 E3.65787
G1 X116.293 Y151.764 E3.68906
G1 X115.374 Y151.953 E3.72027
G1 X114.151 Y152.082 E3.76117
G1 X113.823 Y152.098 E3.77209
G1 X113.287 Y152.111 E3.78992
G1 X107.09 Y152.111 E3.99604
G1 X106.932 Y152.11 E4.00129
G1 X106.234 Y152.1 E4.02451
G1 X105.298 Y152.046 E4.05569
G1 X104.37 Y151.914 E4.08687
G1 X103.456 Y151.702 E4.11808
G1 X102.604 Y151.428 E4.14784
G1 X101.587 Y151.055 E4.18387
G1 X99.131 Y150.189 E4.27049
G1 X96.749 Y149.423 E4.35371
G1 X94.315 Y148.715 E4.43802
G1 X91.887 Y148.084 E4.52146
G1 X89.427 Y147.517 E4.60542
G1 X88.901 Y147.412 E4.62326
G1 X88.732 Y147.377 E4.629
G1 X87.723 Y147.159 E4.66334
G1 X86.816 Y146.922 E4.69452
G1 X85.932 Y146.609 E4.72571
G1 X85.388 Y146.372 E4.74544
G1 X84.391 Y145.906 E4.78205
G1 X84.245 Y145.837 E4.78742
G1 X83.637 Y145.542 E4.80989
G1 X81.382 Y144.525 E4.89217
G1 X79.519 Y143.745 E4.95935
G1 X78.572 Y143.294 E4.99423
G1 X78.378 Y143.19 E5.00155
G1 X77.571 Y142.712 E5.03275
G1 X76.808 Y142.167 E5.06394
G1 X76.093 Y141.559 E5.09515
G1 X75.592 Y141.063 E5.1186
G1 X75.519 Y140.986 E5.12213
G1 X74.904 Y140.279 E5.1533
G1 X74.35 Y139.521 E5.18452
G1 X73.864 Y138.719 E5.21571
G1 X73.447 Y137.879 E5.24691
G1 X73.104 Y137.006 E5.2781
G1 X72.836 Y136.108 E5.30927
G1 X72.646 Y135.189 E5.34048
G1 X72.534 Y134.258 E5.37167
G1 X72.504 Y133.603 E5.39348
G1 X72.494 Y133.007 E5.41331
G1 X72.492 Y132.822 E5.41946
G1 X72.492 Y132.084 E5.44401
G1 X72.493 Y131.922 E5.44939
G1 X72.503 Y131.242 E5.47201
G1 X72.557 Y130.306 E5.5032
G1 X72.69 Y129.378 E5.53438
G1 X72.902 Y128.464 E5.56559
G1 X73.191 Y127.572 E5.59677
G1 X73.668 Y126.475 E5.63656
G1 X74.267 Y125.279 E5.68105
G1 X75.401 Y122.947 E5.76729
G1 X76.438 Y120.649 E5.85115
G1 X77.417 Y118.306 E5.93561
G1 X78.322 Y115.958 E6.0193
G1 X78.987 Y114.087 E6.08534
G1 X79.313 Y113.142 E6.11859
G1 X79.657 Y112.269 E6.1498
G1 X80.073 Y111.429 E6.18098
G1 X80.56 Y110.627 E6.21219
G1 X81.113 Y109.87 E6.24337
G1 X81.653 Y109.243 E6.27089
G1 X81.863 Y109.017 E6.28115
G1 X82.143 Y108.727 E6.29456
G1 X108.417 Y82.452 E7.53043
G0 F6000 X108.7 Y82.735
G1 F1200 X108.798 Y82.637 E7.53504
G1 X109.302 Y82.146 E7.55844
G1 X109.989 Y81.533 E7.58906
G1 X110.726 Y80.982 E7.61967
G1 X111.509 Y80.497 E7.6503
G1 X112.33 Y80.081 E7.68092
G1 X113.185 Y79.738 E7.71156
G1 X114.066 Y79.471 E7.74218
G1 X114.967 Y79.282 E7.77279
G1 X115.881 Y79.171 E7.80342
G1 X116.801 Y79.139 E7.83404
G1 X117.72 Y79.188 E7.86465
G1 X118.632 Y79.317 E7.89528
G1 X119.529 Y79.524 E7.9259
G1 X120.405 Y79.808 E7.95653
G1 X121.252 Y80.167 E7.98713
G1 X122.066 Y80.598 E8.01776
G1 X123.195 Y81.362 E8.0631
G1 X123.578 Y81.659 E8.07922
G1 X124.127 Y82.115 E8.10296
G1 X125.532 Y83.364 E8.16548
G1 X127.455 Y84.982 E8.24907
G1 X129.44 Y86.556 E8.33333
G1 X131.438 Y88.05 E8.41631
G1 X133.529 Y89.523 E8.50138
G1 X135.635 Y90.921 E8.58545
G1 X137.813 Y92.279 E8.67082
G1 X139.193 Y93.096 E8.72416
G1 X141.041 Y94.167 E8.7952
G1 X141.817 Y94.663 E8.82583
G1 X142.351 Y95.064 E8.84804
G1 X142.537 Y95.213 E8.85597
G1 X143.23 Y95.819 E8.88659
G1 X143.868 Y96.483 E8.91722
G1 X144.397 Y97.136 E8.94517
G1 X144.605 Y97.414 E8.95671
G1 X145.124 Y98.174 E8.98732
G1 X145.575 Y98.977 E9.01796
G1 X145.955 Y99.815 E9.04856
G1 X146.261 Y100.684 E9.0792
G1 X146.427 Y101.299 E9.10039
G1 X146.482 Y101.529 E9.10825
G1 X146.657 Y102.433 E9.13888
G1 X146.753 Y103.348 E9.16948
G1 X146.772 Y103.816 E9.18506
G1 X146.782 Y104.413 E9.20492
G1 X146.783 Y104.591 E9.21084
G1 X146.783 Y112.582 E9.47662
G1 X146.782 Y112.722 E9.48128
G1 X146.771 Y113.556 E9.50902
G1 X146.747 Y114.14 E9.52846
G1 X146.722 Y114.505 E9.54063
G1 X146.627 Y115.372 E9.56964
G1 X146.581 Y115.675 E9.57983
G1 X146.423 Y116.497 E9.60767
G1 X146.34 Y116.852 E9.6198
G1 X146.071 Y117.799 E9.65254
G1 X145.944 Y118.179 E9.66586
G1 X145.686 Y118.872 E9.69046
G1 X145.602 Y119.075 E9.69777
G1 X145.262 Y119.814 E9.72482
G1 X145.075 Y120.183 E9.73858
G1 X144.655 Y120.935 E9.76723
G1 X144.547 Y121.111 E9.7741
G1 X144.259 Y121.555 E9.7917
G1 X144.144 Y121.723 E9.79847
G1 X143.877 Y122.095 E9.8137
G1 X143.748 Y122.267 E9.82085
G1 X143.225 Y122.911 E9.84845
G1 X142.931 Y123.245 E9.86324
G1 X142.039 Y124.143 E9.90534
G1 X141.265 Y124.835 E9.93987
G1 X141.084 Y124.994 E9.94789
G1 X140.046 Y125.881 E9.9933
G1 X138.196 Y127.554 E10.07626
G1 X136.349 Y129.322 E10.1613
G1 X134.551 Y131.142 E10.24639
G1 X132.851 Y132.967 E10.32935
G1 X131.203 Y134.838 E10.41227
G1 X129.564 Y136.806 E10.49746
G1 X128.006 Y138.791 E10.58139
G1 X126.484 Y140.846 E10.66644
G1 X125.049 Y142.904 E10.74989
G1 X123.662 Y145.015 E10.8339
G1 X122.611 Y146.702 E10.90001
G1 X122.09 Y147.461 E10.93062
G1 X121.506 Y148.172 E10.96123
G1 X120.862 Y148.83 E10.99185
G1 X120.164 Y149.43 E11.02246
G1 X119.416 Y149.967 E11.05309
G1 X118.624 Y150.437 E11.08372
G1 X117.794 Y150.836 E11.11435
G1 X116.933 Y151.162 E11.14497
G1 X116.047 Y151.412 E11.17559
G1 X115.143 Y151.584 E11.2062
G1 X114.131 Y151.682 E11.24001
G1 X113.803 Y151.698 E11.25094
G1 X113.287 Y151.711 E11.2681
G1 X107.09 Y151.711 E11.47422
G1 X106.938 Y151.71 E11.47927
G1 X106.24 Y151.7 E11.50249
G1 X105.321 Y151.647 E11.53311
G1 X104.41 Y151.514 E11.56373
G1 X103.514 Y151.303 E11.59435
G1 X102.742 Y151.053 E11.62134
G1 X101.708 Y150.674 E11.65796
G1 X99.249 Y149.806 E11.7447
G1 X96.868 Y149.041 E11.82788
G1 X94.431 Y148.333 E11.91228
G1 X91.963 Y147.691 E11.9971
G1 X89.53 Y147.13 E12.08015
G1 X88.979 Y147.02 E12.09883
G1 X88.816 Y146.986 E12.10437
G1 X87.807 Y146.768 E12.1387
G1 X86.917 Y146.535 E12.1693
G1 X86.05 Y146.225 E12.19993
G1 X85.558 Y146.01 E12.21779
G1 X84.561 Y145.544 E12.25439
G1 X84.42 Y145.477 E12.25958
G1 X83.839 Y145.195 E12.28106
G1 X81.52 Y144.15 E12.36566
G1 X79.673 Y143.376 E12.43227
G1 X78.761 Y142.941 E12.46588
G1 X78.567 Y142.837 E12.4732
G1 X77.775 Y142.367 E12.50383
G1 X77.027 Y141.831 E12.53444
G1 X76.328 Y141.231 E12.56507
G1 X75.883 Y140.788 E12.58596
G1 X75.81 Y140.711 E12.58949
G1 X75.206 Y140.016 E12.62011
G1 X74.665 Y139.271 E12.65074
G1 X74.19 Y138.482 E12.68137
G1 X73.786 Y137.655 E12.71198
G1 X73.455 Y136.796 E12.7426
G1 X73.199 Y135.911 E12.77324
G1 X73.022 Y135.008 E12.80385
G1 X72.923 Y134.093 E12.83446
G1 X72.903 Y133.596 E12.851
G1 X72.893 Y133 E12.87083
G1 X72.892 Y132.822 E12.87675
G1 X72.892 Y132.084 E12.90129
G1 X72.893 Y131.928 E12.90648
G1 X72.903 Y131.248 E12.9291
G1 X72.957 Y130.329 E12.95972
G1 X73.09 Y129.418 E12.99034
G1 X73.301 Y128.522 E13.02096
G1 X73.59 Y127.648 E13.05157
G1 X74.026 Y126.654 E13.08768
G1 X74.627 Y125.455 E13.13228
G1 X75.747 Y123.15 E13.21752
G1 X76.819 Y120.775 E13.30419
G1 X77.773 Y118.492 E13.38648
G1 X78.701 Y116.087 E13.47222
G1 X79.344 Y114.278 E13.53608
G1 X79.691 Y113.272 E13.57147
G1 X80.029 Y112.416 E13.60208
G1 X80.44 Y111.592 E13.63271
G1 X80.921 Y110.807 E13.66333
G1 X81.468 Y110.067 E13.69393
G1 X81.946 Y109.516 E13.7182
G1 X82.156 Y109.29 E13.72846
G1 X82.426 Y109.01 E13.74139
G1 X108.7 Y82.735 E14.97727
G0 F6000 X108.982 Y83.018
G1 F1200 X109.077 Y82.924 E14.98171
G1 X109.581 Y82.433 E15.00511
G1 X110.255 Y81.832 E15.03515
G1 X110.98 Y81.293 E15.0652
G1 X111.75 Y80.82 E15.09525
G1 X112.558 Y80.417 E15.12528
G1 X113.399 Y80.088 E15.15532
G1 X114.265 Y79.834 E15.18534
G1 X115.151 Y79.657 E15.21539
G1 X116.049 Y79.56 E15.24543
G1 X116.952 Y79.542 E15.27547
G1 X117.853 Y79.604 E15.30551
G1 X118.745 Y79.746 E15.33555
G1 X119.621 Y79.966 E15.36559
G1 X120.473 Y80.263 E15.3956
G1 X121.297 Y80.634 E15.42566
G1 X122.084 Y81.076 E15.45568
G1 X122.95 Y81.679 E15.49077
G1 X123.333 Y81.976 E15.50689
G1 X123.861 Y82.414 E15.52971
G1 X125.254 Y83.653 E15.59172
G1 X127.217 Y85.303 E15.67701
G1 X129.176 Y86.857 E15.76018
G1 X131.23 Y88.393 E15.84548
G1 X133.299 Y89.851 E15.92967
G1 X135.416 Y91.256 E16.01417
G1 X137.579 Y92.604 E16.09894
G1 X139.028 Y93.462 E16.15495
G1 X140.84 Y94.513 E16.22462
G1 X141.601 Y95 E16.25467
G1 X142.101 Y95.376 E16.27548
G1 X142.287 Y95.525 E16.28341
G1 X142.966 Y96.121 E16.31346
G1 X143.59 Y96.774 E16.3435
G1 X144.077 Y97.375 E16.36923
G1 X144.285 Y97.653 E16.38077
G1 X144.794 Y98.4 E16.41084
G1 X145.234 Y99.188 E16.44086
G1 X145.603 Y100.012 E16.47089
G1 X145.898 Y100.866 E16.50094
G1 X146.038 Y101.392 E16.51904
G1 X146.093 Y101.622 E16.52691
G1 X146.264 Y102.509 E16.55695
G1 X146.372 Y103.823 E16.6008
G1 X146.382 Y104.42 E16.62066
G1 X146.383 Y104.591 E16.62635
G1 X146.383 Y112.582 E16.89213
G1 X146.382 Y112.717 E16.89662
G1 X146.371 Y113.551 E16.92436
G1 X146.348 Y114.113 E16.94307
G1 X146.323 Y114.478 E16.95524
G1 X146.231 Y115.312 E16.98315
G1 X146.185 Y115.615 E16.99334
G1 X146.033 Y116.406 E17.02013
G1 X145.95 Y116.761 E17.03226
G1 X145.692 Y117.672 E17.06375
G1 X145.565 Y118.052 E17.07707
G1 X145.316 Y118.719 E17.10075
G1 X145.232 Y118.922 E17.10806
G1 X144.905 Y119.633 E17.13409
G1 X144.718 Y120.002 E17.14785
G1 X144.314 Y120.726 E17.17542
G1 X144.206 Y120.902 E17.18229
G1 X143.929 Y121.329 E17.19922
G1 X143.814 Y121.497 E17.20599
G1 X143.557 Y121.855 E17.22065
G1 X143.428 Y122.027 E17.2278
G1 X142.924 Y122.646 E17.25435
G1 X142.63 Y122.98 E17.26915
G1 X141.772 Y123.845 E17.30967
G1 X140.998 Y124.537 E17.3442
G1 X140.824 Y124.689 E17.35189
G1 X139.801 Y125.563 E17.39664
G1 X137.916 Y127.268 E17.48118
G1 X136.052 Y129.052 E17.56699
G1 X134.291 Y130.835 E17.65035
G1 X132.558 Y132.695 E17.7349
G1 X130.878 Y134.602 E17.81943
G1 X129.257 Y136.549 E17.90369
G1 X127.672 Y138.568 E17.98907
G1 X126.178 Y140.584 E18.07252
G1 X124.73 Y142.661 E18.15674
G1 X123.296 Y144.845 E18.24363
G1 X122.271 Y146.49 E18.3081
G1 X121.76 Y147.235 E18.33815
G1 X121.185 Y147.931 E18.36817
G1 X120.551 Y148.574 E18.39821
G1 X119.862 Y149.158 E18.42825
G1 X119.125 Y149.679 E18.45827
G1 X118.344 Y150.133 E18.48831
G1 X117.526 Y150.516 E18.51836
G1 X116.677 Y150.824 E18.54839
G1 X115.805 Y151.057 E18.57841
G1 X114.915 Y151.212 E18.60846
G1 X114.112 Y151.283 E18.63527
G1 X113.784 Y151.299 E18.6462
G1 X113.287 Y151.311 E18.66273
G1 X107.09 Y151.311 E18.86884
G1 X106.944 Y151.31 E18.8737
G1 X106.246 Y151.3 E18.89692
G1 X105.344 Y151.247 E18.92697
G1 X104.451 Y151.115 E18.95699
G1 X103.573 Y150.904 E18.98703
G1 X102.88 Y150.677 E19.01128
G1 X101.901 Y150.318 E19.04596
G1 X99.399 Y149.435 E19.13421
G1 X96.955 Y148.65 E19.21959
G1 X94.539 Y147.947 E19.30328
G1 X92.049 Y147.3 E19.38885
G1 X89.601 Y146.736 E19.4724
G1 X89.057 Y146.627 E19.49085
G1 X88.901 Y146.595 E19.49615
G1 X87.892 Y146.377 E19.53048
G1 X87.019 Y146.147 E19.56051
G1 X86.169 Y145.841 E19.59056
G1 X85.727 Y145.647 E19.60661
G1 X84.73 Y145.181 E19.64322
G1 X84.594 Y145.117 E19.64822
G1 X83.986 Y144.822 E19.67069
G1 X81.691 Y143.788 E19.75441
G1 X79.828 Y143.007 E19.8216
G1 X78.95 Y142.589 E19.85395
G1 X78.756 Y142.485 E19.86127
G1 X77.979 Y142.023 E19.89133
G1 X77.247 Y141.495 E19.92135
G1 X76.564 Y140.904 E19.95139
G1 X76.173 Y140.513 E19.96978
G1 X76.1 Y140.436 E19.97331
G1 X75.508 Y139.753 E20.00338
G1 X74.979 Y139.021 E20.03341
G1 X74.517 Y138.246 E20.06342
G1 X74.125 Y137.432 E20.09347
G1 X73.807 Y136.587 E20.1235
G1 X73.564 Y135.717 E20.15355
G1 X73.4 Y134.829 E20.18358
G1 X73.303 Y133.589 E20.22495
G1 X73.293 Y132.993 E20.24477
G1 X73.292 Y132.822 E20.25046
G1 X73.292 Y132.084 E20.27501
G1 X73.293 Y131.934 E20.28
G1 X73.303 Y131.254 E20.30262
G1 X73.356 Y130.352 E20.33267
G1 X73.489 Y129.459 E20.3627
G1 X73.7 Y128.581 E20.39273
G1 X73.989 Y127.725 E20.42278
G1 X74.383 Y126.834 E20.45518
G1 X75.006 Y125.591 E20.50143
G1 X76.114 Y123.311 E20.58574
G1 X77.176 Y120.958 E20.67161
G1 X78.144 Y118.642 E20.75509
G1 X79.079 Y116.216 E20.84157
G1 X79.719 Y114.416 E20.90511
G1 X80.069 Y113.403 E20.94075
G1 X80.401 Y112.563 E20.9708
G1 X80.807 Y111.756 E21.00084
G1 X81.282 Y110.988 E21.03088
G1 X81.823 Y110.265 E21.06091
G1 X82.239 Y109.788 E21.08196
G1 X82.449 Y109.562 E21.09222
G1 X82.708 Y109.293 E21.10464
G1 X108.982 Y83.018 E22.34051
G1 F1500 E15.84051
G0 F6000 X89.114 Y116.381
G0 X89.037 Y130.613
G0 X89.037 Y131.478
;TYPE:SUPPORT-INTERFACE
G1 F1500 E22.34051
G1 F1200 X89.037 Y133.351 E22.40281
G1 X85.95 Y133.34 E22.50549
G1 X83.74 Y133.34 E22.57899
G1 X83.735 Y131.478 E22.64092
G1 X89.037 Y131.478 E22.81727
G0 F6000 X88.836 Y131.78
G1 F1200 X87.472 Y133.144 E22.88142
G0 F6000 X88.836 Y132.96
G1 F1200 X87.553 Y131.677 E22.94177
G0 F6000 X85.545 Y131.677
G1 F1200 X84.083 Y133.139 E23.01054
