;FLAVOR:Marlin
;TIME:2481
;Filament used: 1.37525m
;Layer height: 0.2
;MINX:89.401
;MINY:73.276
;MINZ:0.2
;MAXX:130.586
;MAXY:133.446
;MAXZ:33.6
;Generated with Cura_SteamEngine 4.4.1
M140 S60
M105
M190 S60
M104 S200
M105
M109 S200
M82 ;absolute extrusion mode
M201 X500.00 Y500.00 Z100.00 E5000.00 ;Setup machine max acceleration
M203 X500.00 Y500.00 Z10.00 E50.00 ;Setup machine max feedrate
M204 P500.00 R1000.00 T500.00 ;Setup Print/Retract/Travel acceleration
M205 X8.00 Y8.00 Z0.40 E5.00 ;Setup Jerk
M220 S100 ;Reset Feedrate
M221 S100 ;Reset Flowrate

G28 ;Home

G92 E0 ;Reset Extruder
G1 Z2.0 F3000 ;Move Z Axis up
G1 X10.1 Y20 Z0.28 F5000.0 ;Move to start position
G1 X10.1 Y200.0 Z0.28 F1500.0 E15 ;Draw the first line
G1 X10.4 Y200.0 Z0.28 F5000.0 ;Move to side a little
G1 X10.4 Y20 Z0.28 F1500.0 E30 ;Draw the second line
G92 E0 ;Reset Extruder
G1 Z2.0 F3000 ;Move Z Axis up

G92 E0
G92 E0
G1 F1500 E-6.5
;LAYER_COUNT:168
;LAYER:0
M107
G0 F6000 X91.977 Y77.235 Z0.2
;TYPE:SKIRT
G1 F1500 E0
G1 F1200 X92.609 Y76.542 E0.03119
G1 X93.298 Y75.905 E0.0624
G1 X94.038 Y75.33 E0.09357
G1 X94.825 Y74.82 E0.12477
G1 X95.653 Y74.378 E0.15598
G1 X96.515 Y74.009 E0.18717
G1 X97.372 Y73.724 E0.21721
G1 X97.452 Y73.701 E0.21998
G1 X98.363 Y73.481 E0.25115
G1 X99.29 Y73.339 E0.28234
G1 X100.226 Y73.276 E0.31354
G1 X101.164 Y73.294 E0.34475
G1 X102.097 Y73.391 E0.37594
G1 X103.018 Y73.567 E0.40713
G1 X103.92 Y73.821 E0.4383
G1 X104.798 Y74.151 E0.4695
G1 X105.645 Y74.555 E0.50071
G1 X106.454 Y75.029 E0.53189
G1 X107.22 Y75.571 E0.5631
G1 X108.134 Y76.362 E0.60331
G1 X108.548 Y76.762 E0.62245
G1 X108.683 Y76.895 E0.62876
G1 X126.896 Y95.108 E1.48544
G1 X126.994 Y95.207 E1.49007
G1 X127.462 Y95.687 E1.51237
G1 X128.088 Y96.386 E1.54358
G1 X128.651 Y97.135 E1.57474
G1 X129.149 Y97.93 E1.60595
G1 X129.577 Y98.764 E1.63712
G1 X129.933 Y99.632 E1.66833
G1 X130.213 Y100.527 E1.69952
G1 X130.417 Y101.443 E1.73073
G1 X130.541 Y102.372 E1.7619
G1 X130.586 Y103.309 E1.7931
G1 X130.551 Y104.246 E1.82429
G1 X130.436 Y105.177 E1.85549
G1 X130.242 Y106.095 E1.8867
G1 X129.971 Y106.993 E1.9179
G1 X129.624 Y107.864 E1.94908
G1 X129.205 Y108.703 E1.98027
G1 X128.715 Y109.503 E2.01147
G1 X128.159 Y110.258 E2.04266
G1 X127.613 Y110.887 E2.07036
G1 X127.405 Y111.109 E2.08048
G1 X127.153 Y111.369 E2.09252
G1 X108.72 Y129.789 E2.95925
G1 X108.606 Y129.901 E2.96457
G1 X108.163 Y130.331 E2.9851
G1 X107.463 Y130.955 E3.01629
G1 X106.712 Y131.517 E3.04749
G1 X105.917 Y132.013 E3.07865
G1 X105.081 Y132.44 E3.10988
G1 X104.213 Y132.793 E3.14104
G1 X103.317 Y133.072 E3.17225
G1 X102.041 Y133.33 E3.21555
G1 X101.949 Y133.343 E3.21864
G1 X101.016 Y133.434 E3.24982
G1 X100.078 Y133.446 E3.28102
G1 X99.142 Y133.378 E3.31224
G1 X98.216 Y133.23 E3.34343
G1 X97.306 Y133.004 E3.37461
G1 X96.418 Y132.701 E3.40582
G1 X95.56 Y132.324 E3.43699
G1 X94.736 Y131.875 E3.4682
G1 X93.954 Y131.357 E3.4994
G1 X93.219 Y130.775 E3.53058
G1 X92.536 Y130.132 E3.56178
G1 X91.91 Y129.434 E3.59297
G1 X91.347 Y128.684 E3.62416
G1 X90.848 Y127.89 E3.65535
G1 X90.42 Y127.055 E3.68656
G1 X90.064 Y126.188 E3.71773
G1 X89.783 Y125.293 E3.74893
G1 X89.58 Y124.377 E3.78013
G1 X89.455 Y123.448 E3.81131
G1 X89.414 Y122.755 E3.8344
G1 X89.405 Y122.43 E3.84522
G1 X89.401 Y122.126 E3.85533
G1 X89.401 Y84.975 E5.09097
G1 X89.402 Y84.813 E5.09636
G1 X89.412 Y84.134 E5.11895
G1 X89.466 Y83.198 E5.15013
G1 X89.599 Y82.269 E5.18135
G1 X89.811 Y81.356 E5.21252
G1 X90.1 Y80.463 E5.24374
G1 X90.464 Y79.599 E5.27492
G1 X90.9 Y78.769 E5.3061
G1 X91.406 Y77.979 E5.33731
G1 X91.977 Y77.235 E5.3685
G0 F6000 X92.371 Y77.388
G1 F1200 X93.001 Y76.717 E5.39911
G1 X93.686 Y76.102 E5.42973
G1 X94.423 Y75.55 E5.46036
G1 X95.204 Y75.063 E5.49097
G1 X96.025 Y74.646 E5.5216
G1 X96.879 Y74.302 E5.55222
G1 X97.482 Y74.109 E5.57328
G1 X97.562 Y74.086 E5.57605
G1 X98.457 Y73.87 E5.60667
G1 X99.368 Y73.733 E5.63731
G1 X100.286 Y73.675 E5.6679
G1 X101.207 Y73.697 E5.69854
G1 X102.122 Y73.799 E5.72917
G1 X103.024 Y73.98 E5.75976
G1 X103.908 Y74.239 E5.7904
G1 X104.766 Y74.573 E5.82102
G1 X105.591 Y74.981 E5.85164
G1 X106.378 Y75.458 E5.88224
G1 X107.121 Y76.002 E5.91287
G1 X107.856 Y76.65 E5.94546
G1 X108.27 Y77.05 E5.96461
G1 X108.4 Y77.178 E5.97068
G1 X126.708 Y95.486 E6.83183
G1 X127.176 Y95.966 E6.85413
G1 X127.789 Y96.653 E6.88475
G1 X128.341 Y97.39 E6.91538
G1 X128.826 Y98.172 E6.94598
G1 X129.242 Y98.993 E6.97659
G1 X129.585 Y99.848 E7.00723
G1 X129.853 Y100.729 E7.03786
G1 X130.043 Y101.629 E7.06846
G1 X130.154 Y102.543 E7.09908
G1 X130.186 Y103.463 E7.1297
G1 X130.137 Y104.383 E7.16034
G1 X130.009 Y105.295 E7.19097
G1 X129.802 Y106.192 E7.22159
G1 X129.519 Y107.068 E7.25221
G1 X129.16 Y107.915 E7.28281
G1 X128.729 Y108.729 E7.31344
G1 X128.229 Y109.502 E7.34406
G1 X127.664 Y110.229 E7.37468
G1 X127.321 Y110.613 E7.39181
G1 X127.113 Y110.835 E7.40193
G1 X126.871 Y111.086 E7.41352
G1 X108.438 Y129.506 E8.28025
G1 X108.328 Y129.614 E8.28538
G1 X107.885 Y130.044 E8.30591
G1 X107.197 Y130.656 E8.33654
G1 X106.459 Y131.206 E8.36715
G1 X105.675 Y131.69 E8.39779
G1 X104.853 Y132.104 E8.42841
G1 X103.998 Y132.445 E8.45902
G1 X103.116 Y132.711 E8.48966
G1 X101.985 Y132.934 E8.528
G1 X101.893 Y132.947 E8.53109
G1 X100.977 Y133.036 E8.5617
G1 X100.056 Y133.045 E8.59234
G1 X99.138 Y132.974 E8.62296
G1 X98.23 Y132.824 E8.65357
G1 X97.338 Y132.596 E8.68419
G1 X96.469 Y132.291 E8.71482
G1 X95.63 Y131.912 E8.74545
G1 X94.827 Y131.462 E8.77606
G1 X94.067 Y130.943 E8.80667
G1 X93.354 Y130.361 E8.83728
G1 X92.694 Y129.719 E8.86791
G1 X92.092 Y129.022 E8.89854
G1 X91.553 Y128.275 E8.92918
G1 X91.081 Y127.485 E8.95978
G1 X90.68 Y126.656 E8.99041
G1 X90.352 Y125.796 E9.02103
G1 X90.099 Y124.911 E9.05164
G1 X89.925 Y124.007 E9.08226
G1 X89.814 Y122.744 E9.12443
G1 X89.805 Y122.419 E9.13524
G1 X89.801 Y122.126 E9.14499
G1 X89.801 Y84.975 E10.38064
G1 X89.802 Y84.819 E10.38583
G1 X89.812 Y84.14 E10.40841
G1 X89.866 Y83.221 E10.43903
G1 X89.999 Y82.31 E10.46965
G1 X90.21 Y81.414 E10.50027
G1 X90.499 Y80.54 E10.53088
G1 X90.862 Y79.694 E10.5615
G1 X91.298 Y78.882 E10.59216
G1 X91.802 Y78.112 E10.62277
G1 X92.371 Y77.388 E10.65339
G0 F6000 X92.765 Y77.545
G1 F1200 X93.392 Y76.895 E10.68343
G1 X94.074 Y76.303 E10.71347
G1 X94.806 Y75.774 E10.74351
G1 X95.581 Y75.312 E10.77352
G1 X96.395 Y74.92 E10.80357
G1 X97.593 Y74.493 E10.84587
G1 X97.673 Y74.47 E10.84864
G1 X98.551 Y74.259 E10.87867
G1 X99.444 Y74.127 E10.90869
G1 X100.346 Y74.074 E10.93875
G1 X101.248 Y74.101 E10.96876
G1 X102.145 Y74.208 E10.99881
G1 X103.029 Y74.394 E11.02885
G1 X103.893 Y74.657 E11.05889
G1 X104.73 Y74.996 E11.08893
G1 X105.534 Y75.407 E11.11896
G1 X106.299 Y75.888 E11.14901
G1 X107.017 Y76.434 E11.17902
G1 X107.578 Y76.938 E11.2041
G1 X107.992 Y77.338 E11.22325
G1 X108.117 Y77.461 E11.22908
G1 X126.421 Y95.765 E12.09004
G1 X126.889 Y96.245 E12.11234
G1 X127.49 Y96.919 E12.14237
G1 X128.03 Y97.644 E12.17244
G1 X128.503 Y98.413 E12.20247
G1 X128.906 Y99.221 E12.2325
G1 X129.236 Y100.062 E12.26255
G1 X129.49 Y100.928 E12.29257
G1 X129.667 Y101.814 E12.32262
G1 X129.765 Y102.712 E12.35266
G1 X129.783 Y103.615 E12.3827
G1 X129.721 Y104.516 E12.41274
G1 X129.58 Y105.408 E12.44278
G1 X129.36 Y106.284 E12.47282
G1 X129.063 Y107.137 E12.50286
G1 X128.693 Y107.96 E12.53287
G1 X128.251 Y108.748 E12.56292
G1 X127.741 Y109.493 E12.59295
G1 X127.029 Y110.34 E12.62975
G1 X126.821 Y110.562 E12.63987
G1 X126.588 Y110.803 E12.65102
G1 X108.155 Y129.223 E13.51775
G1 X108.049 Y129.327 E13.52268
G1 X107.606 Y129.757 E13.54322
G1 X106.931 Y130.357 E13.57326
G1 X106.205 Y130.894 E13.60329
G1 X105.435 Y131.366 E13.63333
G1 X104.626 Y131.767 E13.66336
G1 X103.785 Y132.095 E13.69339
G1 X102.918 Y132.348 E13.72342
G1 X101.929 Y132.538 E13.75692
G1 X101.837 Y132.551 E13.76001
G1 X100.938 Y132.637 E13.79005
G1 X100.035 Y132.644 E13.82008
G1 X99.135 Y132.571 E13.85012
G1 X98.245 Y132.419 E13.88015
G1 X97.372 Y132.188 E13.91018
G1 X96.522 Y131.881 E13.94024
G1 X95.703 Y131.5 E13.97028
G1 X94.921 Y131.048 E14.00032
G1 X94.182 Y130.529 E14.03036
G1 X93.492 Y129.947 E14.06038
G1 X92.856 Y129.305 E14.09044
G1 X92.28 Y128.61 E14.12046
G1 X91.767 Y127.867 E14.15049
G1 X91.322 Y127.081 E14.18053
G1 X90.948 Y126.259 E14.21057
G1 X90.648 Y125.407 E14.24061
G1 X90.425 Y124.532 E14.27065
G1 X90.28 Y123.641 E14.30067
G1 X90.214 Y122.733 E14.33095
G1 X90.205 Y122.408 E14.34177
G1 X90.201 Y122.126 E14.35115
G1 X90.201 Y84.975 E15.58679
G1 X90.202 Y84.825 E15.59178
G1 X90.212 Y84.146 E15.61437
G1 X90.265 Y83.244 E15.64442
G1 X90.398 Y82.351 E15.67445
G1 X90.609 Y81.473 E15.70448
G1 X90.898 Y80.617 E15.73453
G1 X91.26 Y79.79 E15.76456
G1 X91.695 Y78.998 E15.79461
G1 X92.197 Y78.248 E15.82463
G1 X92.765 Y77.545 E15.85469
G1 F1500 E9.35469
;MESH:ws-end_stop.stl
G0 F6000 X105.256 Y102.254
G0 X104.134 Y100.775
G0 X103.612 Y103.234
G0 X103.685 Y103.979
G0 X103.987 Y104.687
G0 X104.518 Y105.274
G0 X106.265 Y106.423
;TYPE:WALL-INNER
G1 F1500 E15.85469
G1 F1200 X106.551 Y106.394 E15.86425
G1 X106.714 Y106.366 E15.86975
G1 X106.875 Y106.329 E15.87525
G1 X107.036 Y106.282 E15.88082
G1 X107.295 Y106.187 E15.89
G1 X107.45 Y106.118 E15.89564
G1 X107.603 Y106.038 E15.90139
G1 X107.858 Y105.879 E15.91138
G1 X108.09 Y105.699 E15.92115
G1 X108.223 Y105.581 E15.92706
G1 X108.422 Y105.372 E15.93666
G1 X108.526 Y105.242 E15.9422
G1 X108.535 Y105.232 E15.94264
G1 X108.7 Y104.998 E15.95217
G1 X108.792 Y104.841 E15.95822
G1 X108.915 Y104.591 E15.96749
G1 X108.983 Y104.424 E15.97348
G1 X109.07 Y104.147 E15.98314
G1 X109.111 Y103.972 E15.98912
G1 X109.156 Y103.68 E15.99895
G1 X109.172 Y103.389 E16.00864
G1 X109.171 Y103.222 E16.01419
G1 X109.159 Y103.063 E16.0195
G1 X109.141 Y102.908 E16.02469
G1 X109.111 Y102.737 E16.03046
G1 X109.038 Y102.462 E16.03992
G1 X108.982 Y102.295 E16.04578
G1 X108.865 Y102.019 E16.05575
G1 X108.713 Y101.743 E16.06623
G1 X108.536 Y101.491 E16.07648
G1 X108.339 Y101.259 E16.0866
G1 X108.123 Y101.052 E16.09655
G1 X107.982 Y100.935 E16.10264
G1 X107.743 Y100.769 E16.11232
G1 X107.588 Y100.679 E16.11828
G1 X107.341 Y100.559 E16.12742
G1 X107.189 Y100.494 E16.13291
G1 X107.035 Y100.442 E16.13832
G1 X107.02 Y100.436 E16.13886
G1 X106.731 Y100.363 E16.14877
G1 X106.445 Y100.318 E16.1584
G1 X106.268 Y100.302 E16.16431
G1 X105.978 Y100.3 E16.17396
G1 X105.793 Y100.313 E16.18013
G1 X105.501 Y100.359 E16.18996
G1 X105.21 Y100.432 E16.19994
G1 X105.038 Y100.492 E16.206
G1 X104.781 Y100.602 E16.21529
G1 X104.631 Y100.678 E16.22089
G1 X104.485 Y100.765 E16.22654
G1 X104.249 Y100.927 E16.23606
G1 X104.11 Y101.041 E16.24204
G1 X103.894 Y101.244 E16.2519
G1 X103.692 Y101.48 E16.26223
G1 X103.512 Y101.736 E16.27264
G1 X103.363 Y102.007 E16.28292
G1 X103.245 Y102.278 E16.29276
G1 X103.186 Y102.449 E16.29877
G1 X103.183 Y102.464 E16.29928
G1 X103.111 Y102.737 E16.30867
G1 X103.064 Y103.033 E16.31864
G1 X103.051 Y103.21 E16.32454
G1 X103.049 Y103.506 E16.33439
G1 X103.08 Y103.818 E16.34482
G1 X103.139 Y104.113 E16.35482
G1 X103.19 Y104.286 E16.36082
G1 X103.285 Y104.546 E16.37003
G1 X103.353 Y104.699 E16.3756
G1 X103.428 Y104.844 E16.38103
G1 X103.516 Y104.991 E16.38672
G1 X103.684 Y105.233 E16.39652
G1 X103.884 Y105.467 E16.40676
G1 X104.099 Y105.673 E16.41666
G1 X104.24 Y105.787 E16.4227
G1 X104.251 Y105.794 E16.42313
G1 X104.473 Y105.951 E16.43217
G1 X104.629 Y106.043 E16.4382
G1 X104.885 Y106.17 E16.4477
G1 X105.04 Y106.231 E16.45324
G1 X105.184 Y106.281 E16.45831
G1 X105.336 Y106.325 E16.46357
G1 X105.502 Y106.363 E16.46924
G1 X105.771 Y106.404 E16.47829
G1 X105.791 Y106.408 E16.47897
G1 X106.083 Y106.424 E16.48869
G1 X106.265 Y106.423 E16.49475
G0 F6000 X106.243 Y106.023
G1 F1200 X106.498 Y105.997 E16.50327
G1 X106.636 Y105.974 E16.50793
G1 X106.774 Y105.942 E16.51264
G1 X106.911 Y105.902 E16.51738
G1 X107.145 Y105.816 E16.52568
G1 X107.276 Y105.758 E16.53044
G1 X107.404 Y105.691 E16.53525
G1 X107.629 Y105.551 E16.54406
G1 X107.834 Y105.391 E16.55271
G1 X107.945 Y105.293 E16.55763
G1 X108.121 Y105.108 E16.56613
G1 X108.216 Y104.991 E16.57114
G1 X108.363 Y104.782 E16.57964
G1 X108.439 Y104.652 E16.58465
G1 X108.55 Y104.426 E16.59302
G1 X108.607 Y104.288 E16.59799
G1 X108.684 Y104.042 E16.60656
G1 X108.718 Y103.896 E16.61155
G1 X108.758 Y103.638 E16.62023
G1 X108.772 Y103.38 E16.62882
G1 X108.771 Y103.238 E16.63355
G1 X108.761 Y103.101 E16.63812
G1 X108.745 Y102.966 E16.64264
G1 X108.72 Y102.823 E16.64747
G1 X108.655 Y102.577 E16.65593
G1 X108.608 Y102.437 E16.66084
G1 X108.505 Y102.194 E16.66962
G1 X108.373 Y101.955 E16.6787
G1 X108.219 Y101.736 E16.6876
G1 X108.047 Y101.533 E16.69645
G1 X107.857 Y101.351 E16.7052
G1 X107.74 Y101.254 E16.71026
G1 X107.528 Y101.107 E16.71884
G1 X107.399 Y101.032 E16.7238
G1 X107.176 Y100.923 E16.73206
G1 X107.045 Y100.868 E16.73678
G1 X106.905 Y100.819 E16.74172
G1 X106.651 Y100.755 E16.75043
G1 X106.396 Y100.715 E16.75901
G1 X106.249 Y100.702 E16.76392
G1 X105.991 Y100.7 E16.7725
G1 X105.838 Y100.711 E16.77761
G1 X105.58 Y100.751 E16.78629
G1 X105.325 Y100.815 E16.79503
G1 X105.183 Y100.865 E16.80004
G1 X104.951 Y100.964 E16.80843
G1 X104.824 Y101.029 E16.81318
G1 X104.7 Y101.102 E16.81796
G1 X104.49 Y101.247 E16.82645
G1 X104.374 Y101.342 E16.83144
G1 X104.184 Y101.521 E16.84012
G1 X104.008 Y101.726 E16.84911
G1 X103.852 Y101.948 E16.85813
G1 X103.722 Y102.184 E16.86709
G1 X103.618 Y102.423 E16.87576
G1 X103.569 Y102.565 E16.88076
G1 X103.503 Y102.819 E16.88949
G1 X103.462 Y103.079 E16.89824
G1 X103.451 Y103.226 E16.90314
G1 X103.449 Y103.488 E16.91186
G1 X103.476 Y103.759 E16.92092
G1 X103.528 Y104.017 E16.92967
G1 X103.57 Y104.161 E16.93466
G1 X103.656 Y104.396 E16.94298
G1 X103.714 Y104.526 E16.94772
G1 X103.778 Y104.65 E16.95236
G1 X103.852 Y104.774 E16.95716
G1 X104.001 Y104.988 E16.96583
G1 X104.175 Y105.192 E16.97475
G1 X104.364 Y105.373 E16.98345
G1 X104.481 Y105.468 E16.98847
G1 X104.69 Y105.615 E16.99697
G1 X104.819 Y105.691 E17.00195
G1 X105.048 Y105.804 E17.01044
G1 X105.179 Y105.856 E17.01513
G1 X105.306 Y105.9 E17.0196
G1 X105.436 Y105.938 E17.0241
G1 X105.577 Y105.97 E17.02891
G1 X105.833 Y106.01 E17.03753
G1 X106.092 Y106.024 E17.04616
G1 X106.243 Y106.023 E17.05118
G0 F6000 X106.221 Y105.623
;TYPE:WALL-OUTER
G1 F1200 X106.445 Y105.6 E17.05867
G1 X106.559 Y105.581 E17.06251
G1 X106.673 Y105.555 E17.0664
G1 X106.785 Y105.522 E17.07028
G1 X106.994 Y105.445 E17.07769
G1 X107.102 Y105.397 E17.08162
G1 X107.206 Y105.343 E17.08552
G1 X107.4 Y105.222 E17.09313
G1 X107.578 Y105.084 E17.10062
G1 X107.666 Y105.005 E17.10455
G1 X107.821 Y104.843 E17.11201
G1 X107.897 Y104.75 E17.116
G1 X108.026 Y104.565 E17.1235
G1 X108.087 Y104.462 E17.12748
G1 X108.185 Y104.261 E17.13492
G1 X108.231 Y104.151 E17.13889
G1 X108.298 Y103.937 E17.14635
G1 X108.325 Y103.82 E17.15034
G1 X108.36 Y103.596 E17.15788
G1 X108.372 Y103.371 E17.16537
G1 X108.371 Y103.254 E17.16927
G1 X108.363 Y103.139 E17.1731
G1 X108.349 Y103.024 E17.17695
G1 X108.329 Y102.908 E17.18087
G1 X108.272 Y102.692 E17.1883
G1 X108.234 Y102.579 E17.19226
G1 X108.145 Y102.369 E17.19985
G1 X108.034 Y102.168 E17.20749
G1 X107.902 Y101.981 E17.2151
G1 X107.755 Y101.807 E17.22268
G1 X107.591 Y101.65 E17.23023
G1 X107.498 Y101.573 E17.23424
G1 X107.313 Y101.445 E17.24173
G1 X107.21 Y101.385 E17.24569
G1 X107.011 Y101.287 E17.25307
G1 X106.903 Y101.242 E17.25696
G1 X106.79 Y101.203 E17.26094
G1 X106.57 Y101.147 E17.26849
G1 X106.348 Y101.112 E17.27596
G1 X106.23 Y101.102 E17.2799
G1 X106.004 Y101.1 E17.28742
G1 X105.883 Y101.109 E17.29145
G1 X105.66 Y101.143 E17.29896
G1 X105.44 Y101.199 E17.30651
G1 X105.327 Y101.238 E17.31048
G1 X105.121 Y101.326 E17.31793
G1 X105.016 Y101.38 E17.32186
G1 X104.915 Y101.439 E17.32575
G1 X104.731 Y101.567 E17.3332
G1 X104.638 Y101.643 E17.3372
G1 X104.474 Y101.798 E17.3447
G1 X104.324 Y101.972 E17.35235
G1 X104.192 Y102.16 E17.35999
G1 X104.081 Y102.361 E17.36762
G1 X103.991 Y102.568 E17.37513
G1 X103.952 Y102.681 E17.37911
G1 X103.895 Y102.9 E17.38663
G1 X103.86 Y103.125 E17.39421
G1 X103.851 Y103.243 E17.39814
G1 X103.849 Y103.47 E17.40569
G1 X103.872 Y103.699 E17.41335
