;FLAVOR:Marlin
;TIME:12167
;Filament used: 7.73367m
;Layer height: 0.2
;MINX:77.76
;MINY:76.6
;MINZ:0.2
;MAXX:168.586
;MAXY:176.612
;MAXZ:43.8
;Generated with Cura_SteamEngine 4.4.1
M140 S60
M105
M190 S60
M104 S200
M105
M109 S200
M82 ;absolute extrusion mode
M201 X500.00 Y500.00 Z100.00 E5000.00 ;Setup machine max acceleration
M203 X500.00 Y500.00 Z10.00 E50.00 ;Setup machine max feedrate
M204 P500.00 R1000.00 T500.00 ;Setup Print/Retract/Travel acceleration
M205 X8.00 Y8.00 Z0.40 E5.00 ;Setup Jerk
M220 S100 ;Reset Feedrate
M221 S100 ;Reset Flowrate

G28 ;Home

G92 E0 ;Reset Extruder
G1 Z2.0 F3000 ;Move Z Axis up
G1 X10.1 Y20 Z0.28 F5000.0 ;Move to start position
G1 X10.1 Y200.0 Z0.28 F1500.0 E15 ;Draw the first line
G1 X10.4 Y200.0 Z0.28 F5000.0 ;Move to side a little
G1 X10.4 Y20 Z0.28 F1500.0 E30 ;Draw the second line
G92 E0 ;Reset Extruder
G1 Z2.0 F3000 ;Move Z Axis up

G92 E0
G92 E0
G1 F1500 E-6.5
;LAYER_COUNT:219
;LAYER:0
M107
G0 F6000 X80.969 Y79.843 Z0.2
;TYPE:SKIRT
G1 F1500 E0
G1 F1200 X81.658 Y79.207 E0.03119
G1 X82.398 Y78.631 E0.06238
G1 X83.185 Y78.121 E0.09357
G1 X84.013 Y77.68 E0.12477
G1 X84.875 Y77.311 E0.15596
G1 X85.765 Y77.016 E0.18714
G1 X86.678 Y76.799 E0.21835
G1 X87.605 Y76.66 E0.24953
G1 X88.541 Y76.6 E0.28073
G1 X89.479 Y76.621 E0.31193
G1 X90.411 Y76.721 E0.34311
G1 X91.332 Y76.9 E0.37431
G1 X92.264 Y77.168 E0.40657
G1 X92.323 Y77.188 E0.40864
G1 X94.795 Y77.958 E0.49476
G1 X97.195 Y78.631 E0.57766
G1 X99.672 Y79.251 E0.66259
G1 X102.138 Y79.797 E0.74659
G1 X104.575 Y80.26 E0.8291
G1 X107.072 Y80.664 E0.91323
G1 X109.592 Y81 E0.99779
G1 X112.073 Y81.259 E1.08075
G1 X114.551 Y81.447 E1.16341
G1 X117.108 Y81.568 E1.24855
G1 X119.595 Y81.616 E1.33128
G1 X122.154 Y81.592 E1.4164
G1 X124.641 Y81.499 E1.49917
G1 X127.157 Y81.333 E1.58304
G1 X129.644 Y81.098 E1.66613
G1 X132.156 Y80.789 E1.7503
G1 X134.658 Y80.41 E1.83447
G1 X136.427 Y80.095 E1.89423
G1 X137.488 Y79.959 E1.92981
G1 X137.627 Y79.948 E1.93445
G1 X138.564 Y79.914 E1.96563
G1 X139.501 Y79.96 E1.99684
G1 X140.431 Y80.086 E2.02805
G1 X141.346 Y80.29 E2.05923
G1 X142.241 Y80.571 E2.09043
G1 X143.108 Y80.928 E2.12162
G1 X143.942 Y81.357 E2.15281
G1 X144.736 Y81.856 E2.184
G1 X145.485 Y82.421 E2.21521
G1 X146.147 Y83.012 E2.24472
G1 X146.557 Y83.409 E2.2637
G1 X146.683 Y83.533 E2.26958
G1 X164.896 Y101.746 E3.12627
G1 X164.994 Y101.845 E3.1309
G1 X165.462 Y102.325 E3.1532
G1 X166.088 Y103.024 E3.18441
G1 X166.651 Y103.773 E3.21557
G1 X167.149 Y104.568 E3.24677
G1 X167.577 Y105.402 E3.27795
G1 X167.933 Y106.27 E3.30916
G1 X168.213 Y107.165 E3.34035
G1 X168.417 Y108.081 E3.37156
G1 X168.541 Y109.01 E3.40273
G1 X168.586 Y109.947 E3.43393
G1 X168.551 Y110.884 E3.46512
G1 X168.436 Y111.815 E3.49632
G1 X168.242 Y112.733 E3.52753
G1 X167.971 Y113.631 E3.55872
G1 X167.624 Y114.502 E3.58991
G1 X167.205 Y115.341 E3.6211
G1 X166.715 Y116.141 E3.6523
G1 X166.159 Y116.896 E3.68349
G1 X165.613 Y117.525 E3.71119
G1 X165.405 Y117.747 E3.72131
G1 X165.153 Y118.007 E3.73335
G1 X159.525 Y123.631 E3.99798
G1 X157.701 Y125.507 E4.08501
G1 X155.999 Y127.358 E4.16864
G1 X154.327 Y129.286 E4.25352
G1 X152.752 Y131.204 E4.33607
G1 X151.202 Y133.209 E4.42036
G1 X149.738 Y135.215 E4.50296
G1 X148.285 Y137.333 E4.58839
G1 X146.946 Y139.405 E4.67044
G1 X145.624 Y141.584 E4.75521
G1 X144.38 Y143.771 E4.83889
G1 X143.196 Y145.997 E4.92275
G1 X142.09 Y148.227 E5.00554
G1 X141.02 Y150.546 E5.09049
G1 X140.044 Y152.83 E5.1731
G1 X139.105 Y155.208 E5.25813
G1 X138.253 Y157.565 E5.34149
G1 X137.473 Y159.927 E5.42423
G1 X136.745 Y162.361 E5.50872
G1 X136.103 Y164.753 E5.5911
G1 X135.339 Y168.001 E5.70208
G1 X135.085 Y168.904 E5.73327
G1 X134.756 Y169.782 E5.76446
G1 X134.353 Y170.629 E5.79566
G1 X133.879 Y171.438 E5.82684
G1 X133.338 Y172.204 E5.85803
G1 X132.443 Y173.226 E5.90322
G1 X132.33 Y173.34 E5.90856
G1 X131.642 Y173.977 E5.93974
G1 X130.902 Y174.554 E5.97095
G1 X130.116 Y175.065 E6.00213
G1 X129.289 Y175.507 E6.03332
G1 X128.428 Y175.878 E6.0645
G1 X127.538 Y176.173 E6.09569
G1 X126.626 Y176.392 E6.12688
G1 X125.698 Y176.532 E6.1581
G1 X124.715 Y176.594 E6.19086
G1 X124.158 Y176.604 E6.20939
G1 X123.961 Y176.606 E6.21594
G1 X115.748 Y176.606 E6.48911
G1 X114.736 Y176.612 E6.52277
G1 X114.655 Y176.612 E6.52546
G1 X110.429 Y176.606 E6.66602
G1 X110.287 Y176.605 E6.67074
G1 X109.589 Y176.595 E6.69396
G1 X108.653 Y176.541 E6.72514
G1 X107.725 Y176.409 E6.75632
G1 X106.811 Y176.197 E6.78752
G1 X105.919 Y175.908 E6.81871
G1 X105.054 Y175.545 E6.84991
G1 X104.224 Y175.109 E6.88109
G1 X103.433 Y174.604 E6.91231
G1 X102.689 Y174.033 E6.9435
G1 X102.032 Y173.437 E6.973
G1 X101.722 Y173.132 E6.98747
G1 X101.082 Y172.446 E7.01867
G1 X100.503 Y171.709 E7.04985
G1 X99.989 Y170.924 E7.08105
G1 X99.544 Y170.099 E7.11223
G1 X99.21 Y169.343 E7.13972
G1 X98.877 Y168.503 E7.16977
G1 X97.89 Y166.097 E7.25627
G1 X96.877 Y163.816 E7.33928
G1 X95.776 Y161.515 E7.42412
G1 X94.642 Y159.307 E7.50668
G1 X93.417 Y157.078 E7.59128
G1 X92.144 Y154.91 E7.67489
G1 X90.816 Y152.788 E7.75815
G1 X89.405 Y150.67 E7.8428
G1 X87.962 Y148.63 E7.92591
G1 X86.454 Y146.623 E8.00941
G1 X84.9 Y144.67 E8.09242
G1 X83.245 Y142.708 E8.17779
G1 X81.579 Y140.844 E8.26094
G1 X80.985 Y140.21 E8.28984
G1 X80.839 Y140.051 E8.29702
G1 X80.611 Y139.798 E8.30834
G1 X80.013 Y139.075 E8.33955
G1 X79.479 Y138.304 E8.37074
G1 X79.013 Y137.49 E8.40194
G1 X78.618 Y136.64 E8.43311
G1 X78.296 Y135.759 E8.46431
G1 X78.051 Y134.853 E8.49553
G1 X77.884 Y133.93 E8.52673
G1 X77.784 Y132.66 E8.5691
G1 X77.762 Y131.591 E8.60466
G1 X77.76 Y131.365 E8.61218
G1 X77.76 Y130.012 E8.65718
G1 X77.761 Y129.854 E8.66243
G1 X77.771 Y129.157 E8.68562
G1 X77.825 Y128.221 E8.7168
G1 X77.954 Y127.309 E8.74744
G1 X78.186 Y126.061 E8.78966
G1 X78.624 Y123.506 E8.87588
G1 X78.975 Y121.037 E8.95882
G1 X79.263 Y118.504 E9.04361
G1 X79.474 Y116.021 E9.12649
G1 X79.617 Y113.521 E9.20978
G1 X79.689 Y110.973 E9.29456
G1 X79.689 Y108.485 E9.37731
G1 X79.617 Y105.953 E9.46156
G1 X79.474 Y103.413 E9.54618
G1 X79.265 Y100.953 E9.62829
G1 X78.979 Y98.433 E9.71264
G1 X78.621 Y95.915 E9.79723
G1 X78.188 Y93.383 E9.88267
G1 X77.957 Y92.147 E9.92449
G1 X77.824 Y91.219 E9.95567
G1 X77.771 Y90.29 E9.98662
G1 X77.761 Y89.606 E10.00938
G1 X77.76 Y89.445 E10.01473
G1 X77.76 Y88.272 E10.05374
G1 X77.761 Y88.109 E10.05917
G1 X77.771 Y87.435 E10.08159
G1 X77.825 Y86.498 E10.1128
G1 X77.959 Y85.57 E10.14399
G1 X78.171 Y84.657 E10.17516
G1 X78.46 Y83.764 E10.20638
G1 X78.824 Y82.9 E10.23756
G1 X79.26 Y82.07 E10.26875
G1 X79.766 Y81.28 E10.29995
G1 X80.336 Y80.536 E10.33112
G1 X80.969 Y79.843 E10.36234
G0 F6000 X81.36 Y80.018
G1 F1200 X82.046 Y79.404 E10.39296
G1 X82.782 Y78.851 E10.42358
G1 X83.564 Y78.364 E10.45422
G1 X84.385 Y77.948 E10.48483
G1 X85.239 Y77.603 E10.51547
G1 X86.119 Y77.335 E10.54606
G1 X87.02 Y77.143 E10.5767
G1 X87.934 Y77.031 E10.60733
G1 X88.854 Y76.998 E10.63795
G1 X89.773 Y77.046 E10.66856
G1 X90.685 Y77.172 E10.69918
G1 X91.582 Y77.378 E10.72979
G1 X92.137 Y77.547 E10.74909
G1 X92.218 Y77.574 E10.75193
G1 X94.683 Y78.342 E10.8378
G1 X97.1 Y79.02 E10.92129
G1 X99.586 Y79.642 E11.00652
G1 X102.043 Y80.186 E11.09022
G1 X104.515 Y80.656 E11.17392
G1 X107.026 Y81.062 E11.25852
G1 X109.499 Y81.391 E11.34149
G1 X112.034 Y81.656 E11.42627
G1 X114.573 Y81.849 E11.51096
G1 X117.081 Y81.968 E11.59447
G1 X119.591 Y82.016 E11.67797
G1 X122.137 Y81.992 E11.76265
G1 X124.681 Y81.897 E11.84732
G1 X127.184 Y81.732 E11.93075
G1 X129.698 Y81.495 E12.01474
G1 X132.228 Y81.184 E12.09952
G1 X134.71 Y80.807 E12.18302
G1 X136.497 Y80.489 E12.24339
G1 X137.52 Y80.358 E12.27769
G1 X137.659 Y80.347 E12.28233
G1 X138.579 Y80.314 E12.31295
G1 X139.498 Y80.362 E12.34356
G1 X140.41 Y80.488 E12.37418
G1 X141.308 Y80.694 E12.40482
G1 X142.184 Y80.977 E12.43544
G1 X143.032 Y81.334 E12.46604
G1 X143.846 Y81.764 E12.49666
G1 X144.62 Y82.263 E12.52729
G1 X145.348 Y82.827 E12.55792
G1 X145.869 Y83.299 E12.5813
G1 X146.279 Y83.696 E12.60029
G1 X146.4 Y83.816 E12.60595
G1 X164.708 Y102.124 E13.46711
G1 X165.176 Y102.604 E13.4894
G1 X165.789 Y103.291 E13.52003
G1 X166.341 Y104.028 E13.55065
G1 X166.826 Y104.81 E13.58126
G1 X167.242 Y105.631 E13.61187
G1 X167.585 Y106.486 E13.64251
G1 X167.853 Y107.367 E13.67314
G1 X168.043 Y108.267 E13.70373
G1 X168.154 Y109.181 E13.73436
G1 X168.186 Y110.101 E13.76497
G1 X168.137 Y111.021 E13.79562
G1 X168.009 Y111.933 E13.82625
G1 X167.802 Y112.83 E13.85687
G1 X167.519 Y113.706 E13.88748
G1 X167.16 Y114.553 E13.91808
G1 X166.729 Y115.367 E13.94872
G1 X166.229 Y116.14 E13.97934
G1 X165.664 Y116.867 E14.00996
G1 X165.321 Y117.251 E14.02709
G1 X165.113 Y117.473 E14.0372
G1 X164.871 Y117.724 E14.0488
G1 X159.239 Y123.352 E14.31362
G1 X157.403 Y125.24 E14.40121
G1 X155.686 Y127.108 E14.4856
G1 X154.047 Y128.997 E14.56878
G1 X152.429 Y130.968 E14.65359
G1 X150.891 Y132.957 E14.73722
G1 X149.39 Y135.015 E14.82194
G1 X147.962 Y137.094 E14.90583
G1 X146.611 Y139.186 E14.98866
G1 X145.268 Y141.4 E15.07478
G1 X144.037 Y143.564 E15.15759
G1 X142.843 Y145.81 E15.24219
G1 X141.719 Y148.076 E15.32632
G1 X140.66 Y150.371 E15.41039
G1 X139.675 Y152.675 E15.49373
G1 X138.732 Y155.062 E15.57909
G1 X137.873 Y157.441 E15.66322
G1 X137.093 Y159.803 E15.74595
G1 X136.361 Y162.248 E15.83084
G1 X135.707 Y164.685 E15.91476
G1 X134.949 Y167.909 E16.02491
G1 X134.7 Y168.795 E16.05552
G1 X134.374 Y169.657 E16.08618
G1 X133.975 Y170.486 E16.11678
G1 X133.506 Y171.278 E16.14739
G1 X132.969 Y172.026 E16.17802
G1 X132.159 Y172.944 E16.21874
G1 X132.046 Y173.058 E16.22408
G1 X131.37 Y173.683 E16.2547
G1 X130.643 Y174.247 E16.2853
G1 X129.869 Y174.746 E16.31593
G1 X129.055 Y175.176 E16.34655
G1 X128.206 Y175.534 E16.37719
G1 X127.33 Y175.816 E16.4078
G1 X126.433 Y176.022 E16.43841
G1 X125.521 Y176.148 E16.46903
G1 X124.708 Y176.194 E16.49612
G1 X124.151 Y176.204 E16.51465
G1 X123.961 Y176.206 E16.52097
G1 X115.746 Y176.206 E16.7942
G1 X114.734 Y176.212 E16.82786
G1 X114.656 Y176.212 E16.83045
G1 X110.43 Y176.206 E16.97101
G1 X110.293 Y176.205 E16.97557
G1 X109.595 Y176.195 E16.99879
G1 X108.676 Y176.142 E17.0294
G1 X107.765 Y176.009 E17.06002
G1 X106.869 Y175.798 E17.09064
G1 X105.995 Y175.51 E17.12125
G1 X105.148 Y175.147 E17.1519
G1 X104.337 Y174.712 E17.18251
G1 X103.567 Y174.208 E17.21311
G1 X102.843 Y173.639 E17.24374
G1 X102.313 Y173.152 E17.26768
G1 X102.003 Y172.847 E17.28215
G1 X101.375 Y172.173 E17.31279
G1 X100.808 Y171.448 E17.3434
G1 X100.307 Y170.676 E17.37401
G1 X99.874 Y169.863 E17.40464
G1 X99.582 Y169.195 E17.42889
G1 X99.259 Y168.38 E17.45805
G1 X98.254 Y165.932 E17.54606
G1 X97.24 Y163.647 E17.62921
G1 X96.135 Y161.338 E17.71435
G1 X94.991 Y159.11 E17.79765
G1 X93.779 Y156.904 E17.88137
G1 X92.485 Y154.702 E17.96632
G1 X91.143 Y152.557 E18.05047
G1 X89.75 Y150.466 E18.13404
G1 X88.292 Y148.405 E18.21801
G1 X86.754 Y146.357 E18.30319
G1 X85.203 Y144.409 E18.38601
G1 X83.565 Y142.467 E18.47051
G1 X81.866 Y140.565 E18.55533
G1 X81.277 Y139.937 E18.58397
G1 X81.136 Y139.783 E18.59092
G1 X80.908 Y139.53 E18.60224
G1 X80.322 Y138.82 E18.63286
G1 X79.799 Y138.062 E18.66349
G1 X79.345 Y137.261 E18.69412
G1 X78.962 Y136.424 E18.72473
G1 X78.653 Y135.557 E18.75534
G1 X78.42 Y134.666 E18.78598
G1 X78.265 Y133.759 E18.81658
G1 X78.184 Y132.652 E18.8535
G1 X78.162 Y131.583 E18.88906
G1 X78.16 Y131.365 E18.89631
G1 X78.16 Y130.012 E18.94131
G1 X78.161 Y129.86 E18.94637
G1 X78.171 Y129.163 E18.96955
G1 X78.224 Y128.244 E19.00017
G1 X78.348 Y127.382 E19.02913
G1 X78.579 Y126.136 E19.07128
G1 X79.015 Y123.592 E19.15713
G1 X79.375 Y121.067 E19.24196
G1 X79.657 Y118.585 E19.32504
G1 X79.874 Y116.038 E19.41006
G1 X80.017 Y113.521 E19.49391
G1 X80.089 Y110.984 E19.57833
G1 X80.089 Y108.474 E19.66181
G1 X80.017 Y105.918 E19.74686
G1 X79.876 Y103.426 E19.82988
G1 X79.659 Y100.875 E19.91503
G1 X79.379 Y98.403 E19.99777
G1 X79.017 Y95.857 E20.08331
G1 X78.582 Y93.319 E20.16895
G1 X78.35 Y92.074 E20.21107
G1 X78.22 Y91.162 E20.24171
G1 X78.171 Y90.284 E20.27096
G1 X78.161 Y89.6 E20.29371
G1 X78.16 Y89.445 E20.29887
G1 X78.16 Y88.272 E20.33788
G1 X78.161 Y88.115 E20.3431
G1 X78.171 Y87.441 E20.36552
G1 X78.225 Y86.522 E20.39614
G1 X78.358 Y85.611 E20.42676
G1 X78.57 Y84.715 E20.45739
G1 X78.858 Y83.84 E20.48803
G1 X79.222 Y82.995 E20.51863
G1 X79.657 Y82.183 E20.54927
G1 X80.161 Y81.413 E20.57988
G1 X80.731 Y80.689 E20.61052
G1 X81.36 Y80.018 E20.64111
G0 F6000 X81.752 Y80.197
G1 F1200 X82.434 Y79.605 E20.67115
G1 X83.166 Y79.076 E20.70119
G1 X83.941 Y78.613 E20.73121
G1 X84.755 Y78.221 E20.76126
G1 X85.6 Y77.903 E20.79129
G1 X86.47 Y77.661 E20.82133
G1 X87.358 Y77.496 E20.85137
G1 X88.257 Y77.411 E20.8814
G1 X89.16 Y77.405 E20.91144
G1 X90.06 Y77.48 E20.94148
G1 X90.95 Y77.634 E20.97152
G1 X92.01 Y77.926 E21.00809
G1 X92.112 Y77.96 E21.01166
G1 X94.561 Y78.723 E21.09698
G1 X97 Y79.407 E21.18123
G1 X99.482 Y80.028 E21.26633
G1 X101.979 Y80.581 E21.35139
G1 X104.448 Y81.05 E21.43498
G1 X106.946 Y81.455 E21.51914
G1 X109.472 Y81.791 E21.6039
G1 X111.999 Y82.055 E21.68841
G1 X114.525 Y82.247 E21.77266
G1 X117.089 Y82.368 E21.85804
G1 X119.587 Y82.416 E21.94114
G1 X122.156 Y82.392 E22.02659
G1 X124.687 Y82.297 E22.11083
G1 X127.215 Y82.131 E22.19509
G1 X129.748 Y81.891 E22.27971
G1 X132.265 Y81.582 E22.36406
G1 X134.799 Y81.198 E22.4493
G1 X136.567 Y80.883 E22.50903
G1 X137.551 Y80.757 E22.54203
G1 X137.69 Y80.746 E22.54666
G1 X138.593 Y80.714 E22.57672
G1 X139.495 Y80.763 E22.60676
G1 X140.389 Y80.891 E22.6368
G1 X141.268 Y81.098 E22.66683
G1 X142.125 Y81.382 E22.69686
G1 X142.954 Y81.74 E22.7269
G1 X143.748 Y82.171 E22.75695
G1 X144.501 Y82.67 E22.78699
G1 X145.206 Y83.233 E22.817
G1 X145.59 Y83.586 E22.83435
G1 X146 Y83.983 E22.85333
G1 X146.117 Y84.099 E22.85881
G1 X164.421 Y102.403 E23.71977
G1 X164.889 Y102.883 E23.74207
G1 X165.49 Y103.557 E23.7721
G1 X166.03 Y104.282 E23.80217
G1 X166.503 Y105.051 E23.8322
G1 X166.906 Y105.859 E23.86223
G1 X167.236 Y106.7 E23.89228
G1 X167.49 Y107.566 E23.9223
G1 X167.667 Y108.452 E23.95235
G1 X167.765 Y109.35 E23.98239
G1 X167.783 Y110.253 E24.01243
G1 X167.721 Y111.154 E24.04247
G1 X167.58 Y112.046 E24.07251
G1 X167.36 Y112.922 E24.10255
G1 X167.063 Y113.775 E24.13259
G1 X166.693 Y114.598 E24.1626
G1 X166.251 Y115.386 E24.19265
G1 X165.741 Y116.131 E24.22268
G1 X165.029 Y116.978 E24.25948
G1 X164.821 Y117.2 E24.2696
G1 X164.588 Y117.441 E24.28075
G1 X158.952 Y123.073 E24.54576
G1 X157.105 Y124.973 E24.63389
G1 X155.406 Y126.821 E24.71738
G1 X153.737 Y128.744 E24.80207
G1 X152.102 Y130.736 E24.88779
G1 X150.584 Y132.7 E24.97035
G1 X149.064 Y134.783 E25.05611
G1 X147.646 Y136.848 E25.13943
G1 X146.251 Y139.008 E25.22495
G1 X144.93 Y141.186 E25.30967
G1 X143.694 Y143.359 E25.39282
G1 X142.489 Y145.624 E25.47815
G1 X141.348 Y147.923 E25.56352
G1 X140.307 Y150.182 E25.64625
G1 X139.3 Y152.538 E25.73146
G1 X138.344 Y154.957 E25.81798
G1 X137.511 Y157.263 E25.89952
G1 X136.707 Y159.7 E25.98488
G1 X135.978 Y162.134 E26.06938
G1 X135.322 Y164.579 E26.15358
G1 X134.56 Y167.818 E26.26425
G1 X134.315 Y168.687 E26.29428
G1 X133.993 Y169.531 E26.32433
G1 X133.598 Y170.343 E26.35436
G1 X133.133 Y171.117 E26.38439
G1 X132.601 Y171.847 E26.41444
G1 X131.875 Y172.663 E26.45076
G1 X131.762 Y172.777 E26.4561
G1 X131.099 Y173.389 E26.48611
G1 X130.384 Y173.941 E26.51616
G1 X129.622 Y174.427 E26.54622
G1 X128.821 Y174.844 E26.57625
G1 X127.986 Y175.188 E26.60629
G1 X127.124 Y175.457 E26.63632
G1 X126.242 Y175.649 E26.66634
G1 X125.346 Y175.762 E26.69638
G1 X124.701 Y175.794 E26.71786
G1 X124.144 Y175.804 E26.73639
G1 X123.961 Y175.806 E26.74248
G1 X115.743 Y175.806 E27.01581
G1 X114.731 Y175.812 E27.04947
G1 X114.657 Y175.812 E27.05193
G1 X110.431 Y175.806 E27.19249
G1 X110.299 Y175.805 E27.19688
G1 X109.601 Y175.795 E27.22009
G1 X108.699 Y175.742 E27.25015
G1 X107.806 Y175.61 E27.28017
G1 X106.928 Y175.399 E27.3102
G1 X106.072 Y175.111 E27.34024
G1 X105.245 Y174.749 E27.37027
G1 X104.453 Y174.314 E27.40032
G1 X103.702 Y173.812 E27.43037
G1 X102.999 Y173.245 E27.46041
G1 X102.593 Y172.867 E27.47886
G1 X102.283 Y172.562 E27.49332
