;FLAVOR:Marlin
;TIME:1930
;Filament used: 1.16485m
;Layer height: 0.2
;MINX:59.046
;MINY:79.011
;MINZ:0.2
;MAXX:160.959
;MAXY:140.99
;MAXZ:2
;Generated with Cura_SteamEngine 4.4.1
M140 S60
M105
M190 S60
M104 S200
M105
M109 S200
M82 ;absolute extrusion mode
M201 X500.00 Y500.00 Z100.00 E5000.00 ;Setup machine max acceleration
M203 X500.00 Y500.00 Z10.00 E50.00 ;Setup machine max feedrate
M204 P500.00 R1000.00 T500.00 ;Setup Print/Retract/Travel acceleration
M205 X8.00 Y8.00 Z0.40 E5.00 ;Setup Jerk
M220 S100 ;Reset Feedrate
M221 S100 ;Reset Flowrate

G28 ;Home

G92 E0 ;Reset Extruder
G1 Z2.0 F3000 ;Move Z Axis up
G1 X10.1 Y20 Z0.28 F5000.0 ;Move to start position
G1 X10.1 Y200.0 Z0.28 F1500.0 E15 ;Draw the first line
G1 X10.4 Y200.0 Z0.28 F5000.0 ;Move to side a little
G1 X10.4 Y20 Z0.28 F1500.0 E30 ;Draw the second line
G92 E0 ;Reset Extruder
G1 Z2.0 F3000 ;Move Z Axis up

G92 E0
G92 E0
G1 F1500 E-6.5
;LAYER_COUNT:10
;LAYER:0
M107
G0 F6000 X65.887 Y97.037 Z0.2
;TYPE:SKIRT
G1 F1500 E0
G1 F1200 X66.355 Y96.719 E0.01882
G1 X66.701 Y96.493 E0.03256
G1 X67.289 Y96.125 E0.05564
G1 X68.105 Y95.661 E0.08686
G1 X68.701 Y95.378 E0.1088
G1 X69.286 Y95.121 E0.13005
G1 X69.578 Y94.998 E0.14059
G1 X70.027 Y94.816 E0.15671
G1 X70.91 Y94.501 E0.18789
G1 X71.817 Y94.262 E0.21908
G1 X72.741 Y94.102 E0.25027
G1 X73.672 Y94.021 E0.28136
G1 X74.259 Y93.995 E0.3009
G1 X74.427 Y93.989 E0.30649
G1 X75.773 Y93.95 E0.35128
G1 X78.292 Y93.805 E0.4352
G1 X80.82 Y93.588 E0.51959
G1 X83.31 Y93.304 E0.60294
G1 X85.817 Y92.945 E0.68718
G1 X88.271 Y92.522 E0.77
G1 X90.718 Y92.03 E0.85302
G1 X93.228 Y91.451 E0.93869
G1 X95.606 Y90.83 E1.02044
G1 X98.057 Y90.116 E1.10535
G1 X100.472 Y89.337 E1.18975
G1 X102.807 Y88.511 E1.27212
G1 X105.175 Y87.596 E1.35656
G1 X107.488 Y86.628 E1.43996
G1 X109.801 Y85.581 E1.5244
G1 X112.027 Y84.497 E1.60675
G1 X113.914 Y83.518 E1.67746
G1 X116.497 Y82.139 E1.77484
G1 X116.641 Y82.064 E1.78024
G1 X117.237 Y81.757 E1.80254
G1 X118.088 Y81.364 E1.83372
G1 X118.866 Y81.077 E1.8613
G1 X119.446 Y80.888 E1.88159
G1 X119.667 Y80.819 E1.88929
G1 X122.174 Y80.06 E1.97641
G1 X122.335 Y80.012 E1.982
G1 X123.013 Y79.818 E2.00545
G1 X123.925 Y79.599 E2.03665
G1 X124.784 Y79.466 E2.06556
G1 X125.472 Y79.387 E2.08859
G1 X125.653 Y79.368 E2.09465
G1 X128.182 Y79.12 E2.17916
G1 X128.334 Y79.106 E2.18424
G1 X129 Y79.05 E2.20647
G1 X129.937 Y79.011 E2.23766
G1 X130.789 Y79.045 E2.26602
G1 X131.523 Y79.103 E2.29051
G1 X131.733 Y79.122 E2.29752
G1 X134.202 Y79.365 E2.38004
G1 X134.348 Y79.38 E2.38492
G1 X135.063 Y79.46 E2.40885
G1 X135.99 Y79.604 E2.44005
G1 X136.825 Y79.805 E2.46862
G1 X137.428 Y79.975 E2.48946
G1 X137.636 Y80.036 E2.49667
G1 X140.125 Y80.791 E2.58318
G1 X140.26 Y80.833 E2.58788
G1 X140.931 Y81.046 E2.61129
G1 X141.812 Y81.367 E2.64248
G1 X142.634 Y81.748 E2.67261
G1 X143.194 Y82.036 E2.69356
G1 X143.344 Y82.115 E2.6992
G1 X145.61 Y83.325 E2.78464
G1 X145.732 Y83.391 E2.78925
G1 X146.368 Y83.741 E2.81339
G1 X147.17 Y84.228 E2.8446
G1 X147.918 Y84.773 E2.87538
G1 X148.414 Y85.168 E2.89647
G1 X148.533 Y85.265 E2.90158
G1 X150.565 Y86.93 E2.98895
G1 X150.694 Y87.037 E2.99453
G1 X151.185 Y87.452 E3.01591
G1 X151.875 Y88.087 E3.0471
G1 X152.472 Y88.737 E3.07645
G1 X152.981 Y89.337 E3.10262
G1 X153.091 Y89.469 E3.10834
G1 X154.636 Y91.349 E3.18927
G1 X154.731 Y91.465 E3.19426
G1 X155.177 Y92.023 E3.21802
G1 X155.73 Y92.78 E3.2492
G1 X156.201 Y93.55 E3.27922
G1 X156.522 Y94.128 E3.30121
G1 X156.603 Y94.279 E3.30691
G1 X157.805 Y96.525 E3.39164
G1 X157.879 Y96.664 E3.39688
G1 X158.2 Y97.285 E3.42013
G1 X158.594 Y98.136 E3.45132
G1 X158.892 Y98.943 E3.47993
G1 X159.107 Y99.606 E3.50311
G1 X159.168 Y99.802 E3.50994
G1 X159.893 Y102.189 E3.59291
G1 X159.937 Y102.336 E3.59802
G1 X160.137 Y103.029 E3.62201
G1 X160.358 Y103.94 E3.65318
G1 X160.489 Y104.762 E3.68087
G1 X160.565 Y105.392 E3.70198
G1 X160.591 Y105.628 E3.70987
G1 X160.85 Y108.25 E3.7975
G1 X160.863 Y108.397 E3.80241
G1 X160.919 Y109.054 E3.82434
G1 X160.959 Y109.991 E3.85554
G1 X160.924 Y110.87 E3.8848
G1 X160.873 Y111.504 E3.90595
G1 X160.855 Y111.705 E3.91266
G1 X160.598 Y114.303 E3.99949
G1 X160.582 Y114.452 E4.00448
G1 X160.51 Y115.091 E4.02587
G1 X160.365 Y116.017 E4.05704
G1 X160.177 Y116.805 E4.08399
G1 X159.988 Y117.485 E4.10746
G1 X159.916 Y117.733 E4.11605
G1 X159.181 Y120.155 E4.20023
G1 X159.137 Y120.297 E4.20518
G1 X158.918 Y120.985 E4.22919
G1 X158.595 Y121.866 E4.2604
G1 X158.21 Y122.697 E4.29086
G1 X157.896 Y123.305 E4.31362
G1 X157.821 Y123.446 E4.31893
G1 X156.637 Y125.659 E4.40241
G1 X156.558 Y125.804 E4.4079
G1 X156.207 Y126.437 E4.43198
G1 X155.718 Y127.237 E4.46316
G1 X155.238 Y127.897 E4.49031
G1 X154.916 Y128.307 E4.50764
G1 X154.762 Y128.499 E4.51583
G1 X153.043 Y130.59 E4.60586
G1 X152.954 Y130.696 E4.61047
G1 X152.523 Y131.207 E4.6327
G1 X151.889 Y131.898 E4.66389
G1 X151.267 Y132.472 E4.69204
G1 X150.747 Y132.917 E4.71481
G1 X150.57 Y133.066 E4.7225
G1 X148.603 Y134.679 E4.80711
G1 X148.475 Y134.782 E4.81257
G1 X147.918 Y135.225 E4.83624
G1 X147.16 Y135.777 E4.86743
G1 X146.42 Y136.228 E4.89625
G1 X145.836 Y136.553 E4.91848
G1 X145.668 Y136.644 E4.92484
G1 X143.415 Y137.847 E5.00979
G1 X143.273 Y137.922 E5.01513
G1 X142.652 Y138.242 E5.03836
G1 X141.8 Y138.636 E5.06958
G1 X141.003 Y138.928 E5.09782
G1 X140.361 Y139.136 E5.12026
G1 X140.16 Y139.2 E5.12728
G1 X137.727 Y139.937 E5.21183
G1 X137.576 Y139.981 E5.21706
G1 X136.894 Y140.177 E5.24066
G1 X135.983 Y140.397 E5.27183
G1 X135.111 Y140.533 E5.30119
G1 X134.432 Y140.611 E5.32392
G1 X134.254 Y140.63 E5.32987
G1 X131.744 Y140.877 E5.41376
G1 X131.579 Y140.892 E5.41927
G1 X130.858 Y140.952 E5.44333
G1 X129.921 Y140.99 E5.47452
G1 X129.044 Y140.953 E5.50372
G1 X128.351 Y140.896 E5.52685
G1 X128.175 Y140.88 E5.53272
G1 X125.697 Y140.636 E5.61554
G1 X125.552 Y140.621 E5.62039
G1 X124.819 Y140.539 E5.64492
G1 X123.892 Y140.395 E5.67612
G1 X122.992 Y140.176 E5.70693
G1 X122.233 Y139.957 E5.73321
G1 X122.095 Y139.916 E5.73799
G1 X119.721 Y139.197 E5.82049
G1 X119.569 Y139.15 E5.82579
G1 X118.954 Y138.954 E5.84726
G1 X118.073 Y138.631 E5.87846
G1 X117.279 Y138.263 E5.90757
G1 X116.666 Y137.949 E5.93048
G1 X116.502 Y137.864 E5.93662
G1 X113.873 Y136.461 E6.03574
G1 X111.619 Y135.299 E6.12008
G1 X109.359 Y134.213 E6.20348
G1 X107.044 Y133.18 E6.28779
G1 X104.702 Y132.213 E6.37207
G1 X102.385 Y131.335 E6.45448
G1 X99.972 Y130.496 E6.53945
G1 X97.586 Y129.741 E6.62268
G1 X95.162 Y129.05 E6.70652
G1 X92.728 Y128.429 E6.79007
G1 X90.261 Y127.871 E6.87419
G1 X87.812 Y127.394 E6.95718
G1 X85.342 Y126.984 E7.04045
G1 X82.797 Y126.634 E7.1259
G1 X80.321 Y126.364 E7.20874
G1 X77.823 Y126.163 E7.29209
G1 X75.291 Y126.032 E7.37642
G1 X74.43 Y126.01 E7.40506
G1 X74.249 Y126.004 E7.41109
G1 X73.708 Y125.981 E7.4291
G1 X72.773 Y125.901 E7.46031
G1 X71.849 Y125.742 E7.49149
G1 X70.942 Y125.505 E7.52267
G1 X70.126 Y125.219 E7.55143
G1 X69.593 Y125.008 E7.5705
G1 X69.232 Y124.857 E7.58351
G1 X68.759 Y124.65 E7.60069
G1 X67.916 Y124.238 E7.63189
G1 X67.373 Y123.922 E7.65279
G1 X66.76 Y123.542 E7.67678
G1 X66.463 Y123.352 E7.6885
G1 X66.003 Y123.046 E7.70688
G1 X65.245 Y122.493 E7.73809
G1 X64.673 Y122.005 E7.76309
G1 X64.299 Y121.663 E7.77995
G1 X64.004 Y121.383 E7.79348
G1 X63.544 Y120.93 E7.81495
G1 X62.904 Y120.244 E7.84616
G1 X62.293 Y119.461 E7.87919
G1 X61.803 Y118.771 E7.90734
G1 X61.596 Y118.468 E7.91954
G1 X61.401 Y118.173 E7.9313
G1 X60.917 Y117.369 E7.96252
G1 X60.375 Y116.221 E8.00474
G1 X60.15 Y115.663 E8.02475
G1 X60.043 Y115.386 E8.03463
G1 X59.874 Y114.932 E8.05074
G1 X59.585 Y114.04 E8.08193
G1 X59.348 Y112.992 E8.11766
G1 X59.303 Y112.735 E8.12634
G1 X59.211 Y112.104 E8.14755
G1 X59.114 Y111.267 E8.17557
G1 X59.046 Y110.332 E8.20676
G1 X59.058 Y109.394 E8.23796
G1 X59.101 Y108.856 E8.25591
G1 X59.146 Y108.426 E8.27029
G1 X59.19 Y108.065 E8.28238
G1 X59.279 Y107.421 E8.30401
G1 X59.446 Y106.498 E8.3352
G1 X59.793 Y105.291 E8.37697
G1 X59.876 Y105.054 E8.38533
G1 X60.04 Y104.616 E8.40088
G1 X60.347 Y103.846 E8.42845
G1 X60.731 Y102.991 E8.45963
G1 X61.345 Y101.921 E8.50066
G1 X61.684 Y101.4 E8.52133
G1 X61.899 Y101.082 E8.5341
G1 X62.181 Y100.68 E8.55043
G1 X62.752 Y99.936 E8.58162
G1 X63.427 Y99.2 E8.61484
G1 X64.04 Y98.59 E8.6436
G1 X64.293 Y98.345 E8.65532
G1 X64.563 Y98.093 E8.6676
G1 X65.276 Y97.483 E8.69881
G1 X65.887 Y97.037 E8.72397
G0 F6000 X66.112 Y97.367
G1 F1200 X66.58 Y97.049 E8.74279
G1 X66.914 Y96.832 E8.75604
G1 X67.502 Y96.464 E8.77911
G1 X68.302 Y96.01 E8.8097
G1 X68.862 Y95.744 E8.83032
G1 X69.447 Y95.487 E8.85157
G1 X69.728 Y95.368 E8.86172
G1 X70.177 Y95.186 E8.87784
G1 X71.044 Y94.878 E8.90844
G1 X71.935 Y94.646 E8.93906
G1 X72.843 Y94.492 E8.96969
G1 X73.69 Y94.42 E8.99797
G1 X74.277 Y94.394 E9.01751
G1 X74.439 Y94.388 E9.0229
G1 X75.808 Y94.348 E9.06845
G1 X78.348 Y94.203 E9.15307
G1 X80.828 Y93.99 E9.23586
G1 X83.375 Y93.699 E9.32113
G1 X85.875 Y93.341 E9.40513
G1 X88.346 Y92.915 E9.48852
G1 X90.815 Y92.419 E9.57228
G1 X93.314 Y91.842 E9.65759
G1 X95.747 Y91.206 E9.74123
G1 X98.154 Y90.505 E9.82461
G1 X100.591 Y89.719 E9.90978
G1 X102.967 Y88.879 E9.9936
G1 X105.294 Y87.98 E10.07657
G1 X107.641 Y86.998 E10.16119
G1 X109.962 Y85.947 E10.24593
G1 X112.223 Y84.846 E10.32957
G1 X114.156 Y83.843 E10.402
G1 X116.686 Y82.492 E10.4974
G1 X116.824 Y82.42 E10.50258
G1 X117.42 Y82.113 E10.52487
G1 X118.256 Y81.727 E10.5555
G1 X118.99 Y81.458 E10.5815
G1 X119.57 Y81.269 E10.60179
G1 X119.783 Y81.202 E10.60922
G1 X122.29 Y80.443 E10.69634
G1 X122.445 Y80.397 E10.70172
G1 X123.123 Y80.203 E10.72517
G1 X124.018 Y79.988 E10.75579
G1 X124.83 Y79.863 E10.78311
G1 X125.518 Y79.784 E10.80614
G1 X125.692 Y79.766 E10.81196
G1 X128.221 Y79.518 E10.89648
G1 X128.368 Y79.504 E10.90139
G1 X129.034 Y79.448 E10.92362
G1 X129.954 Y79.411 E10.95425
G1 X130.757 Y79.444 E10.98098
G1 X131.491 Y79.502 E11.00547
G1 X131.694 Y79.52 E11.01224
G1 X134.163 Y79.763 E11.09476
G1 X134.304 Y79.778 E11.09948
G1 X135.019 Y79.858 E11.1234
G1 X135.928 Y80 E11.15401
G1 X136.716 Y80.19 E11.18097
G1 X137.319 Y80.36 E11.2018
G1 X137.52 Y80.418 E11.20876
G1 X140.009 Y81.173 E11.29527
G1 X140.139 Y81.214 E11.2998
G1 X140.81 Y81.427 E11.32322
G1 X141.675 Y81.743 E11.35385
G1 X142.451 Y82.104 E11.38231
G1 X143.011 Y82.392 E11.40326
G1 X143.156 Y82.468 E11.4087
G1 X145.422 Y83.678 E11.49414
G1 X145.54 Y83.741 E11.49859
G1 X146.176 Y84.091 E11.52274
G1 X146.962 Y84.57 E11.55335
G1 X147.668 Y85.086 E11.58244
G1 X148.164 Y85.481 E11.60353
G1 X148.279 Y85.574 E11.60845
G1 X150.311 Y87.239 E11.69582
G1 X150.436 Y87.342 E11.70121
G1 X150.927 Y87.757 E11.72259
G1 X151.603 Y88.382 E11.75321
G1 X152.167 Y88.996 E11.78094
G1 X152.676 Y89.596 E11.80711
G1 X152.782 Y89.723 E11.81261
G1 X154.327 Y91.603 E11.89355
G1 X154.418 Y91.715 E11.89835
G1 X154.864 Y92.273 E11.92211
G1 X155.407 Y93.016 E11.95271
G1 X155.851 Y93.745 E11.9811
G1 X156.172 Y94.323 E12.00309
G1 X156.251 Y94.467 E12.00856
G1 X157.453 Y96.713 E12.09328
G1 X157.523 Y96.848 E12.09834
G1 X157.844 Y97.469 E12.12159
G1 X158.231 Y98.304 E12.1522
G1 X158.511 Y99.066 E12.1792
G1 X158.726 Y99.729 E12.20239
G1 X158.785 Y99.918 E12.20897
G1 X159.51 Y102.305 E12.29194
G1 X159.552 Y102.447 E12.29687
G1 X159.752 Y103.14 E12.32086
G1 X159.969 Y104.035 E12.35149
G1 X160.092 Y104.809 E12.37756
G1 X160.168 Y105.439 E12.39866
G1 X160.193 Y105.667 E12.40629
G1 X160.452 Y108.289 E12.49392
G1 X160.465 Y108.431 E12.49867
G1 X160.521 Y109.088 E12.5206
G1 X160.559 Y110.008 E12.55122
G1 X160.525 Y110.838 E12.57885
G1 X160.474 Y111.472 E12.60001
G1 X160.457 Y111.665 E12.60645
G1 X160.2 Y114.263 E12.69328
G1 X160.184 Y114.407 E12.6981
G1 X160.112 Y115.046 E12.71949
G1 X159.97 Y115.955 E12.75009
G1 X159.792 Y116.698 E12.7755
G1 X159.603 Y117.378 E12.79898
G1 X159.533 Y117.617 E12.80726
G1 X158.798 Y120.039 E12.89144
G1 X158.756 Y120.176 E12.89621
G1 X158.537 Y120.864 E12.92022
G1 X158.22 Y121.728 E12.95083
G1 X157.854 Y122.513 E12.97964
G1 X157.54 Y123.121 E13.0024
G1 X157.468 Y123.258 E13.00755
G1 X156.284 Y125.471 E13.09102
G1 X156.208 Y125.61 E13.09629
G1 X155.857 Y126.243 E13.12037
G1 X155.376 Y127.028 E13.15099
G1 X154.923 Y127.65 E13.17658
G1 X154.601 Y128.06 E13.19392
G1 X154.453 Y128.244 E13.20177
G1 X152.734 Y130.335 E13.29181
G1 X152.649 Y130.438 E13.29625
G1 X152.218 Y130.949 E13.31848
G1 X151.594 Y131.626 E13.3491
G1 X151.007 Y132.169 E13.3757
G1 X150.487 Y132.614 E13.39846
G1 X150.316 Y132.757 E13.40588
G1 X148.349 Y134.37 E13.49049
G1 X148.226 Y134.469 E13.49574
G1 X147.669 Y134.912 E13.51941
G1 X146.924 Y135.453 E13.55003
G1 X146.226 Y135.878 E13.57721
G1 X145.642 Y136.203 E13.59944
G1 X145.48 Y136.292 E13.60559
G1 X143.227 Y137.495 E13.69054
G1 X143.089 Y137.567 E13.69571
G1 X142.468 Y137.887 E13.71895
G1 X141.633 Y138.272 E13.74953
G1 X140.88 Y138.548 E13.7762
G1 X140.238 Y138.756 E13.79865
G1 X140.044 Y138.817 E13.80541
G1 X137.611 Y139.554 E13.88997
G1 X137.466 Y139.597 E13.895
G1 X136.784 Y139.793 E13.9186
G1 X135.889 Y140.008 E13.94921
G1 X135.066 Y140.136 E13.97692
G1 X134.387 Y140.214 E13.99965
G1 X134.215 Y140.232 E14.0054
G1 X131.705 Y140.479 E14.08929
G1 X131.546 Y140.493 E14.0946
G1 X130.825 Y140.553 E14.11866
G1 X129.905 Y140.59 E14.14928
G1 X129.077 Y140.554 E14.17685
G1 X128.384 Y140.497 E14.19998
G1 X128.214 Y140.482 E14.20565
G1 X125.736 Y140.238 E14.28847
G1 X125.597 Y140.223 E14.29312
G1 X124.864 Y140.141 E14.31765
G1 X123.954 Y139.999 E14.34828
G1 X123.103 Y139.792 E14.37741
G1 X122.344 Y139.573 E14.40369
G1 X122.21 Y139.533 E14.40834
G1 X119.836 Y138.814 E14.49084
G1 X119.69 Y138.769 E14.49592
G1 X119.075 Y138.573 E14.51739
G1 X118.211 Y138.255 E14.54801
G1 X117.461 Y137.907 E14.57551
G1 X116.848 Y137.593 E14.59842
G1 X116.691 Y137.511 E14.60431
G1 X114.124 Y136.141 E14.70109
G1 X111.796 Y134.941 E14.7882
G1 X109.516 Y133.845 E14.87234
G1 X107.211 Y132.817 E14.95628
G1 X104.83 Y131.834 E15.04196
G1 X102.51 Y130.955 E15.12447
G1 X100.119 Y130.123 E15.20868
G1 X97.711 Y129.362 E15.29267
G1 X95.266 Y128.664 E15.37724
G1 X92.81 Y128.037 E15.46155
G1 X90.322 Y127.475 E15.54638
G1 X87.883 Y127 E15.62903
G1 X85.391 Y126.586 E15.71305
G1 X82.894 Y126.242 E15.79688
G1 X80.364 Y125.967 E15.88153
G1 X77.84 Y125.764 E15.96575
G1 X75.284 Y125.632 E16.05087
G1 X74.44 Y125.61 E16.07896
G1 X74.266 Y125.604 E16.08475
G1 X73.725 Y125.581 E16.10276
G1 X72.808 Y125.502 E16.13337
G1 X71.901 Y125.344 E16.16399
G1 X71.011 Y125.108 E16.19461
G1 X70.273 Y124.847 E16.22065
G1 X69.74 Y124.636 E16.23972
G1 X69.392 Y124.491 E16.25226
G1 X68.919 Y124.284 E16.26943
G1 X68.093 Y123.878 E16.30004
G1 X67.584 Y123.582 E16.31962
G1 X66.971 Y123.202 E16.34361
G1 X66.685 Y123.019 E16.3549
G1 X66.225 Y122.713 E16.37328
G1 X65.481 Y122.17 E16.40392
G1 X64.943 Y121.71 E16.42746
G1 X64.569 Y121.368 E16.44431
G1 X64.284 Y121.098 E16.45737
G1 X63.824 Y120.645 E16.47885
G1 X63.197 Y119.971 E16.50946
G1 X62.62 Y119.229 E16.54073
G1 X62.13 Y118.539 E16.56887
G1 X61.929 Y118.247 E16.58066
G1 X61.734 Y117.952 E16.59243
G1 X61.26 Y117.163 E16.62304
G1 X60.746 Y116.071 E16.66318
G1 X60.521 Y115.513 E16.68319
G1 X60.418 Y115.247 E16.69268
G1 X60.249 Y114.793 E16.70879
G1 X59.966 Y113.917 E16.73941
G1 X59.742 Y112.923 E16.7733
G1 X59.697 Y112.666 E16.78198
G1 X59.608 Y112.058 E16.80242
G1 X59.511 Y111.221 E16.83044
G1 X59.445 Y110.303 E16.86105
G1 X59.459 Y109.382 E16.89169
G1 X59.499 Y108.898 E16.90784
G1 X59.544 Y108.468 E16.92222
G1 X59.586 Y108.12 E16.93388
G1 X59.675 Y107.476 E16.9555
G1 X59.84 Y106.57 E16.98613
G1 X60.171 Y105.423 E17.02584
G1 X60.254 Y105.186 E17.03419
G1 X60.412 Y104.764 E17.04918
G1 X60.719 Y103.994 E17.07675
G1 X61.097 Y103.155 E17.10736
G1 X61.68 Y102.139 E17.14632
G1 X62.019 Y101.618 E17.16699
G1 X62.226 Y101.312 E17.17928
G1 X62.508 Y100.91 E17.19561
G1 X63.069 Y100.18 E17.22623
G1 X63.709 Y99.483 E17.2577
G1 X64.322 Y98.873 E17.28647
G1 X64.566 Y98.638 E17.29773
G1 X64.836 Y98.386 E17.31002
G1 X65.536 Y97.787 E17.34066
G1 X66.112 Y97.367 E17.36437
G0 F6000 X66.336 Y97.698
G1 F1200 X66.804 Y97.38 E17.38319
G1 X67.126 Y97.171 E17.39596
G1 X67.714 Y96.803 E17.41903
