;FLAVOR:Marlin
;TIME:1614
;Filament used: 0.802255m
;Layer height: 0.2
;MINX:76.662
;MINY:73.395
;MINZ:0.2
;MAXX:125.147
;MAXY:145.251
;MAXZ:6.4
;Generated with Cura_SteamEngine 4.4.1
M140 S60
M105
M190 S60
M104 S200
M105
M109 S200
M82 ;absolute extrusion mode
M201 X500.00 Y500.00 Z100.00 E5000.00 ;Setup machine max acceleration
M203 X500.00 Y500.00 Z10.00 E50.00 ;Setup machine max feedrate
M204 P500.00 R1000.00 T500.00 ;Setup Print/Retract/Travel acceleration
M205 X8.00 Y8.00 Z0.40 E5.00 ;Setup Jerk
M220 S100 ;Reset Feedrate
M221 S100 ;Reset Flowrate

G28 ;Home

G92 E0 ;Reset Extruder
G1 Z2.0 F3000 ;Move Z Axis up
G1 X10.1 Y20 Z0.28 F5000.0 ;Move to start position
G1 X10.1 Y200.0 Z0.28 F1500.0 E15 ;Draw the first line
G1 X10.4 Y200.0 Z0.28 F5000.0 ;Move to side a little
G1 X10.4 Y20 Z0.28 F1500.0 E30 ;Draw the second line
G92 E0 ;Reset Extruder
G1 Z2.0 F3000 ;Move Z Axis up

G92 E0
G92 E0
G1 F1500 E-6.5
;LAYER_COUNT:32
;LAYER:0
M107
G0 F6000 X80.747 Y78.213 Z0.2
;TYPE:SKIRT
G1 F1500 E0
G1 F1200 X81.294 Y77.659 E0.02589
G1 X81.591 Y77.379 E0.03947
G1 X82.265 Y76.793 E0.06918
G1 X82.43 Y76.661 E0.0762
G1 X82.85 Y76.342 E0.09375
G1 X83.024 Y76.216 E0.10089
G1 X83.5 Y75.89 E0.12008
G1 X83.687 Y75.769 E0.12749
G1 X84.137 Y75.493 E0.14505
G1 X84.316 Y75.389 E0.15193
G1 X84.8 Y75.124 E0.17028
G1 X84.99 Y75.026 E0.17739
G1 X85.783 Y74.656 E0.2065
G1 X86.177 Y74.491 E0.22071
G1 X86.931 Y74.207 E0.2475
G1 X87.125 Y74.142 E0.25431
G1 X87.946 Y73.902 E0.28276
G1 X88.361 Y73.798 E0.29699
G1 X89.235 Y73.616 E0.32668
G1 X89.434 Y73.583 E0.33339
G1 X89.925 Y73.513 E0.34989
G1 X90.142 Y73.487 E0.35716
G1 X90.682 Y73.436 E0.3752
G1 X90.896 Y73.421 E0.38233
G1 X91.772 Y73.395 E0.41148
G1 X92.183 Y73.399 E0.42515
G1 X92.962 Y73.434 E0.45109
G1 X93.5 Y73.477 E0.46904
G1 X96.137 Y73.653 E0.55694
G1 X98.67 Y73.751 E0.64125
G1 X101.156 Y73.775 E0.72394
G1 X103.673 Y73.73 E0.80767
G1 X106.164 Y73.614 E0.89061
G1 X107.336 Y73.521 E0.92971
G1 X107.504 Y73.509 E0.93531
G1 X108.965 Y73.416 E0.98401
G1 X109.771 Y73.395 E1.01082
G1 X110.183 Y73.399 E1.02453
G1 X110.942 Y73.432 E1.04979
G1 X111.17 Y73.45 E1.0574
G1 X112.068 Y73.558 E1.08748
G1 X112.462 Y73.622 E1.10076
G1 X113.261 Y73.783 E1.12787
G1 X113.478 Y73.835 E1.13529
G1 X113.95 Y73.959 E1.15152
G1 X114.159 Y74.019 E1.15876
G1 X114.796 Y74.223 E1.181
G1 X114.988 Y74.291 E1.18778
G1 X115.473 Y74.476 E1.20504
G1 X115.669 Y74.556 E1.21208
G1 X116.201 Y74.789 E1.2314
G1 X116.392 Y74.879 E1.23842
G1 X116.828 Y75.097 E1.25464
G1 X117.016 Y75.196 E1.2617
G1 X117.802 Y75.652 E1.29193
G1 X118.163 Y75.882 E1.30616
G1 X118.809 Y76.327 E1.33225
G1 X118.972 Y76.448 E1.339
G1 X119.414 Y76.794 E1.35767
G1 X119.591 Y76.94 E1.36531
G1 X120.231 Y77.511 E1.39383
G1 X120.518 Y77.788 E1.4071
G1 X121.103 Y78.398 E1.43521
G1 X121.238 Y78.55 E1.44197
G1 X121.586 Y78.961 E1.45988
G1 X121.738 Y79.15 E1.46795
G1 X122.074 Y79.59 E1.48636
G1 X122.195 Y79.757 E1.49322
G1 X122.654 Y80.444 E1.5207
G1 X122.843 Y80.751 E1.53269
G1 X123.315 Y81.599 E1.56497
G1 X123.499 Y81.967 E1.57866
G1 X123.854 Y82.752 E1.60731
G1 X123.957 Y83.006 E1.61643
G1 X124.183 Y83.616 E1.63807
G1 X124.252 Y83.82 E1.64523
G1 X124.497 Y84.652 E1.67408
G1 X124.6 Y85.06 E1.68807
G1 X124.781 Y85.918 E1.71724
G1 X124.816 Y86.125 E1.72422
G1 X124.922 Y86.932 E1.75129
G1 X124.964 Y87.38 E1.76626
G1 X125.01 Y88.19 E1.79324
G1 X125.026 Y89.001 E1.82022
G1 X125.028 Y89.137 E1.82474
G1 X125.098 Y98.586 E2.13903
G1 X125.098 Y98.741 E2.14418
G1 X125.093 Y99.483 E2.16886
G1 X125.086 Y99.804 E2.17954
G1 X125.059 Y100.555 E2.20454
G1 X125.053 Y100.69 E2.20903
G1 X124.994 Y101.924 E2.25012
G1 X124.942 Y105.775 E2.37822
G1 X125.147 Y133.409 E3.29735
G1 X125.147 Y133.551 E3.30208
G1 X125.143 Y134.283 E3.32642
G1 X125.098 Y135.22 E3.35762
G1 X124.973 Y136.149 E3.3888
G1 X124.77 Y137.065 E3.42001
G1 X124.489 Y137.96 E3.45121
G1 X124.133 Y138.828 E3.48241
G1 X123.704 Y139.662 E3.5136
G1 X123.206 Y140.456 E3.54478
G1 X122.642 Y141.206 E3.57599
G1 X122.017 Y141.904 E3.60715
G1 X121.334 Y142.547 E3.63835
G1 X120.598 Y143.13 E3.66958
G1 X119.816 Y143.647 E3.70076
G1 X118.993 Y144.096 E3.73194
G1 X118.134 Y144.473 E3.76314
G1 X117.247 Y144.776 E3.79432
G1 X116.336 Y145.002 E3.82553
G1 X115.41 Y145.15 E3.85672
G1 X114.751 Y145.206 E3.87872
G1 X114.462 Y145.222 E3.88835
G1 X113.945 Y145.239 E3.90555
G1 X112.489 Y145.251 E3.95398
G1 X112.325 Y145.251 E3.95944
G1 X111.567 Y145.246 E3.98465
G1 X110.919 Y145.222 E4.00622
G1 X109.352 Y145.119 E4.05845
G1 X106.733 Y144.995 E4.14565
G1 X104.239 Y144.946 E4.22862
G1 X101.722 Y144.969 E4.31234
G1 X97.913 Y145.137 E4.43915
G1 X96.873 Y145.204 E4.47381
G1 X96.588 Y145.219 E4.4833
G1 X96.275 Y145.231 E4.49372
G1 X95.945 Y145.239 E4.5047
G1 X94.489 Y145.251 E4.55313
G1 X94.323 Y145.251 E4.55865
G1 X93.589 Y145.246 E4.58306
G1 X92.652 Y145.199 E4.61427
G1 X91.723 Y145.073 E4.64545
G1 X90.808 Y144.869 E4.67663
G1 X89.913 Y144.587 E4.70784
G1 X89.046 Y144.23 E4.73903
G1 X88.212 Y143.8 E4.77024
G1 X87.418 Y143.301 E4.80143
G1 X86.67 Y142.736 E4.8326
G1 X85.972 Y142.109 E4.86381
G1 X85.33 Y141.425 E4.89501
G1 X84.749 Y140.689 E4.9262
G1 X84.232 Y139.907 E4.95738
G1 X83.784 Y139.083 E4.98857
G1 X83.408 Y138.223 E5.01979
G1 X83.107 Y137.335 E5.05098
G1 X82.882 Y136.425 E5.08216
G1 X82.736 Y135.498 E5.11337
G1 X82.671 Y134.64 E5.14199
G1 X82.659 Y134.305 E5.15314
G1 X82.652 Y133.998 E5.16335
G1 X82.641 Y132.613 E5.20942
G1 X82.586 Y130.095 E5.29319
G1 X82.461 Y127.578 E5.37701
G1 X82.266 Y125.095 E5.45984
G1 X81.993 Y122.542 E5.54524
G1 X81.657 Y120.062 E5.62848
G1 X81.25 Y117.593 E5.71171
G1 X80.775 Y115.141 E5.79478
G1 X80.22 Y112.657 E5.87943
G1 X79.605 Y110.228 E5.96277
G1 X78.913 Y107.781 E6.04735
G1 X78.167 Y105.405 E6.13018
G1 X77.36 Y103.067 E6.21244
G1 X77.092 Y102.168 E6.24365
G1 X76.902 Y101.25 E6.27483
G1 X76.767 Y99.928 E6.31902
G1 X76.754 Y99.611 E6.32958
G1 X76.745 Y99.24 E6.34192
G1 X76.732 Y97.414 E6.40265
G1 X76.722 Y97.02 E6.41576
G1 X76.719 Y96.832 E6.42202
G1 X76.662 Y89.322 E6.67181
G1 X76.662 Y89.177 E6.67663
G1 X76.666 Y88.471 E6.70011
G1 X76.672 Y88.168 E6.71019
G1 X76.679 Y87.957 E6.71721
G1 X76.712 Y87.391 E6.73607
G1 X76.73 Y87.179 E6.74315
G1 X76.788 Y86.649 E6.76088
G1 X76.816 Y86.44 E6.76789
G1 X76.968 Y85.572 E6.7972
G1 X77.059 Y85.152 E6.8115
G1 X77.243 Y84.424 E6.83647
G1 X77.3 Y84.227 E6.84329
G1 X77.495 Y83.62 E6.8645
G1 X77.566 Y83.419 E6.87159
G1 X77.736 Y82.971 E6.88752
G1 X77.815 Y82.775 E6.89455
G1 X78.076 Y82.178 E6.91622
G1 X78.166 Y81.988 E6.92322
G1 X78.403 Y81.518 E6.94072
G1 X78.498 Y81.34 E6.94743
G1 X78.765 Y80.867 E6.9655
G1 X78.877 Y80.68 E6.97275
G1 X79.153 Y80.242 E6.98997
G1 X79.27 Y80.066 E6.997
G1 X79.606 Y79.589 E7.0164
G1 X79.734 Y79.417 E7.02354
G1 X80.117 Y78.932 E7.04409
G1 X80.259 Y78.762 E7.05146
G1 X80.608 Y78.364 E7.06906
G1 X80.747 Y78.213 E7.07589
G0 F6000 X81.041 Y78.484
G1 F1200 X81.569 Y77.95 E7.10087
G1 X81.866 Y77.67 E7.11444
G1 X82.515 Y77.106 E7.14304
G1 X82.68 Y76.974 E7.15007
G1 X83.085 Y76.666 E7.16699
G1 X83.259 Y76.54 E7.17414
G1 X83.718 Y76.226 E7.19263
G1 X83.905 Y76.105 E7.20004
G1 X84.338 Y75.839 E7.21694
G1 X84.517 Y75.735 E7.22383
G1 X84.983 Y75.479 E7.24151
G1 X85.173 Y75.381 E7.24862
G1 X85.937 Y75.025 E7.27666
G1 X86.331 Y74.86 E7.29086
G1 X87.058 Y74.586 E7.31671
G1 X87.252 Y74.521 E7.32351
G1 X88.043 Y74.29 E7.35092
G1 X88.458 Y74.186 E7.36515
G1 X89.301 Y74.011 E7.39378
G1 X89.5 Y73.978 E7.40049
G1 X89.973 Y73.91 E7.41639
G1 X90.19 Y73.884 E7.42366
G1 X90.71 Y73.835 E7.44103
G1 X90.924 Y73.82 E7.44816
G1 X91.768 Y73.795 E7.47625
G1 X92.179 Y73.799 E7.48992
G1 X92.93 Y73.832 E7.51492
G1 X93.51 Y73.879 E7.53427
G1 X96.133 Y74.054 E7.62171
G1 X98.649 Y74.151 E7.70545
G1 X101.159 Y74.175 E7.78894
G1 X103.699 Y74.13 E7.87343
G1 X106.184 Y74.014 E7.95618
G1 X107.368 Y73.92 E7.99568
G1 X107.53 Y73.908 E8.00108
G1 X108.991 Y73.815 E8.04977
G1 X109.767 Y73.794 E8.07559
G1 X110.179 Y73.798 E8.0893
G1 X110.91 Y73.831 E8.11364
G1 X111.138 Y73.849 E8.12124
G1 X112.004 Y73.953 E8.15025
G1 X112.398 Y74.017 E8.16353
G1 X113.168 Y74.172 E8.18965
G1 X113.385 Y74.224 E8.19707
G1 X113.84 Y74.344 E8.21273
G1 X114.049 Y74.404 E8.21996
G1 X114.663 Y74.6 E8.24139
G1 X114.855 Y74.668 E8.24817
G1 X115.322 Y74.846 E8.26479
G1 X115.518 Y74.926 E8.27183
G1 X116.03 Y75.151 E8.29043
G1 X116.221 Y75.241 E8.29746
G1 X116.642 Y75.451 E8.3131
G1 X116.83 Y75.55 E8.32017
G1 X117.587 Y75.989 E8.34928
G1 X117.948 Y76.219 E8.36351
G1 X118.57 Y76.648 E8.38864
G1 X118.733 Y76.769 E8.3954
G1 X119.16 Y77.103 E8.41343
G1 X119.337 Y77.249 E8.42106
G1 X119.953 Y77.799 E8.44852
G1 X120.24 Y78.076 E8.46179
G1 X120.804 Y78.664 E8.48889
G1 X120.939 Y78.816 E8.49565
G1 X121.274 Y79.212 E8.5129
G1 X121.426 Y79.401 E8.52097
G1 X121.75 Y79.825 E8.53872
G1 X121.871 Y79.992 E8.54558
G1 X122.314 Y80.654 E8.57207
G1 X122.503 Y80.961 E8.58406
G1 X122.957 Y81.778 E8.61515
G1 X123.141 Y82.146 E8.62883
G1 X123.483 Y82.903 E8.65646
G1 X123.586 Y83.157 E8.66558
G1 X123.804 Y83.744 E8.6864
G1 X123.873 Y83.948 E8.69357
G1 X124.11 Y84.749 E8.72135
G1 X124.213 Y85.157 E8.73535
G1 X124.387 Y85.985 E8.76349
G1 X124.422 Y86.192 E8.77047
G1 X124.524 Y86.97 E8.79657
G1 X124.566 Y87.418 E8.81153
G1 X124.61 Y88.198 E8.83752
G1 X124.626 Y89.009 E8.8645
G1 X124.628 Y89.139 E8.86882
G1 X124.698 Y98.588 E9.18311
G1 X124.698 Y98.738 E9.18809
G1 X124.693 Y99.48 E9.21277
G1 X124.686 Y99.79 E9.22309
G1 X124.659 Y100.541 E9.24808
G1 X124.654 Y100.671 E9.25241
G1 X124.593 Y101.928 E9.29427
G1 X124.542 Y105.775 E9.42223
G1 X124.747 Y133.412 E10.34146
G1 X124.747 Y133.549 E10.34602
G1 X124.743 Y134.281 E10.37037
G1 X124.698 Y135.2 E10.40097
G1 X124.573 Y136.113 E10.43162
G1 X124.37 Y137.011 E10.46224
G1 X124.089 Y137.887 E10.49284
G1 X123.734 Y138.737 E10.52348
G1 X123.306 Y139.552 E10.55409
G1 X122.809 Y140.327 E10.58472
G1 X122.247 Y141.056 E10.61533
G1 X121.623 Y141.733 E10.64595
G1 X120.943 Y142.354 E10.67658
G1 X120.212 Y142.913 E10.70719
G1 X119.435 Y143.407 E10.73782
G1 X118.618 Y143.832 E10.76845
G1 X117.768 Y144.184 E10.79904
G1 X116.89 Y144.461 E10.82967
G1 X115.991 Y144.661 E10.8603
G1 X114.729 Y144.807 E10.90255
G1 X114.44 Y144.823 E10.91218
G1 X113.941 Y144.839 E10.92878
G1 X112.485 Y144.851 E10.97721
G1 X112.328 Y144.851 E10.98243
G1 X111.57 Y144.846 E11.00765
G1 X110.945 Y144.823 E11.02845
G1 X109.341 Y144.718 E11.08191
G1 X106.76 Y144.595 E11.16785
G1 X104.243 Y144.546 E11.25158
G1 X101.729 Y144.569 E11.3352
G1 X97.873 Y144.739 E11.46358
G1 X96.848 Y144.805 E11.49774
G1 X96.573 Y144.819 E11.5069
G1 X96.26 Y144.831 E11.51732
G1 X95.941 Y144.839 E11.52793
G1 X94.485 Y144.851 E11.57636
G1 X94.326 Y144.851 E11.58165
G1 X93.592 Y144.846 E11.60606
G1 X92.672 Y144.8 E11.6367
G1 X91.76 Y144.674 E11.66732
G1 X90.863 Y144.469 E11.69792
G1 X89.986 Y144.187 E11.72856
G1 X89.137 Y143.831 E11.75918
G1 X88.323 Y143.402 E11.78979
G1 X87.548 Y142.904 E11.82043
G1 X86.82 Y142.341 E11.85104
G1 X86.144 Y141.716 E11.88166
G1 X85.524 Y141.035 E11.91229
G1 X84.965 Y140.304 E11.9429
G1 X84.473 Y139.526 E11.97351
G1 X84.049 Y138.708 E12.00416
G1 X83.698 Y137.857 E12.03477
G1 X83.422 Y136.979 E12.06539
G1 X83.224 Y136.08 E12.096
G1 X83.104 Y135.167 E12.12663
G1 X83.071 Y134.625 E12.14469
G1 X83.059 Y134.29 E12.15584
G1 X83.052 Y133.995 E12.16566
G1 X83.042 Y132.693 E12.20896
G1 X82.985 Y130.065 E12.29639
G1 X82.86 Y127.56 E12.37981
G1 X82.661 Y125.025 E12.46438
G1 X82.392 Y122.514 E12.54838
G1 X82.054 Y120.014 E12.63228
G1 X81.643 Y117.523 E12.71626
G1 X81.157 Y115.016 E12.80119
G1 X80.613 Y112.577 E12.88431
G1 X79.992 Y110.126 E12.9684
G1 X79.306 Y107.7 E13.05226
G1 X78.537 Y105.25 E13.13766
G1 X77.738 Y102.936 E13.21909
G1 X77.476 Y102.054 E13.24969
G1 X77.291 Y101.152 E13.28031
G1 X77.167 Y99.911 E13.32179
G1 X77.154 Y99.594 E13.33235
G1 X77.145 Y99.237 E13.34422
G1 X77.132 Y97.401 E13.40529
G1 X77.122 Y97.01 E13.4183
G1 X77.119 Y96.829 E13.42432
G1 X77.062 Y89.319 E13.67411
G1 X77.062 Y89.179 E13.67877
G1 X77.066 Y88.473 E13.70225
G1 X77.072 Y88.182 E13.71193
G1 X77.079 Y87.971 E13.71895
G1 X77.111 Y87.425 E13.73714
G1 X77.129 Y87.213 E13.74422
G1 X77.185 Y86.702 E13.76132
G1 X77.213 Y86.493 E13.76833
G1 X77.359 Y85.656 E13.79659
G1 X77.45 Y85.236 E13.81088
G1 X77.628 Y84.535 E13.83494
G1 X77.685 Y84.338 E13.84176
G1 X77.872 Y83.754 E13.86216
G1 X77.943 Y83.553 E13.86925
G1 X78.107 Y83.12 E13.88465
G1 X78.186 Y82.924 E13.89167
G1 X78.437 Y82.349 E13.91254
G1 X78.527 Y82.159 E13.91953
G1 X78.756 Y81.706 E13.93642
G1 X78.851 Y81.528 E13.94313
G1 X79.108 Y81.072 E13.96054
G1 X79.22 Y80.885 E13.96779
G1 X79.487 Y80.464 E13.98437
G1 X79.604 Y80.288 E13.9914
G1 X79.927 Y79.828 E14.01009
G1 X80.055 Y79.656 E14.01722
G1 X80.424 Y79.189 E14.03702
G1 X80.566 Y79.019 E14.04439
G1 X80.902 Y78.635 E14.06136
G1 X81.041 Y78.484 E14.06818
G0 F6000 X81.335 Y78.755
G1 F1200 X81.843 Y78.241 E14.09222
G1 X82.14 Y77.961 E14.1058
G1 X82.765 Y77.418 E14.13333
G1 X82.93 Y77.286 E14.14036
G1 X83.32 Y76.99 E14.15665
G1 X83.494 Y76.864 E14.16379
G1 X83.935 Y76.561 E14.18159
G1 X84.122 Y76.44 E14.189
G1 X84.539 Y76.185 E14.20525
G1 X84.718 Y76.081 E14.21214
G1 X85.166 Y75.835 E14.22914
G1 X85.356 Y75.737 E14.23625
G1 X86.092 Y75.394 E14.26326
G1 X86.486 Y75.229 E14.27746
G1 X87.186 Y74.965 E14.30235
G1 X87.38 Y74.9 E14.30915
G1 X88.141 Y74.678 E14.33552
G1 X88.556 Y74.574 E14.34975
G1 X89.366 Y74.405 E14.37727
G1 X89.565 Y74.372 E14.38398
G1 X90.021 Y74.307 E14.3993
G1 X90.238 Y74.281 E14.40656
G1 X90.738 Y74.234 E14.42327
G1 X90.952 Y74.219 E14.4304
G1 X91.764 Y74.194 E14.45742
G1 X92.175 Y74.198 E14.47109
G1 X92.897 Y74.231 E14.49513
G1 X93.52 Y74.281 E14.51592
G1 X96.089 Y74.452 E14.60155
G1 X98.596 Y74.549 E14.685
G1 X101.198 Y74.575 E14.77155
G1 X103.689 Y74.53 E14.85441
G1 X106.234 Y74.411 E14.93915
G1 X107.399 Y74.319 E14.97802
G1 X107.555 Y74.308 E14.98322
G1 X109.016 Y74.215 E15.03191
G1 X109.763 Y74.194 E15.05677
G1 X110.175 Y74.198 E15.07047
G1 X110.879 Y74.23 E15.09391
G1 X111.107 Y74.248 E15.10152
G1 X111.939 Y74.348 E15.12939
G1 X112.333 Y74.412 E15.14267
G1 X113.075 Y74.561 E15.16784
G1 X113.292 Y74.613 E15.17526
G1 X113.73 Y74.728 E15.19032
G1 X113.939 Y74.788 E15.19755
G1 X114.529 Y74.977 E15.21816
G1 X114.721 Y75.045 E15.22493
G1 X115.171 Y75.216 E15.24095
G1 X115.367 Y75.296 E15.24799
G1 X115.86 Y75.513 E15.2659
G1 X116.051 Y75.603 E15.27292
G1 X116.456 Y75.805 E15.28798
G1 X116.644 Y75.904 E15.29504
G1 X117.372 Y76.327 E15.32305
G1 X117.733 Y76.557 E15.33728
G1 X118.332 Y76.969 E15.36147
G1 X118.495 Y77.09 E15.36822
G1 X118.905 Y77.411 E15.38554
G1 X119.082 Y77.557 E15.39317
G1 X119.675 Y78.087 E15.41962
G1 X119.962 Y78.364 E15.43289
G1 X120.505 Y78.93 E15.45897
G1 X120.64 Y79.082 E15.46574
G1 X120.962 Y79.463 E15.48233
G1 X121.114 Y79.652 E15.49039
G1 X121.426 Y80.059 E15.50745
G1 X121.547 Y80.226 E15.51431
G1 X121.973 Y80.864 E15.53983
G1 X122.162 Y81.171 E15.55182
G1 X122.599 Y81.956 E15.5817
G1 X122.783 Y82.324 E15.59538
G1 X123.112 Y83.053 E15.62198
G1 X123.215 Y83.307 E15.6311
G1 X123.425 Y83.872 E15.65115
G1 X123.494 Y84.076 E15.65831
G1 X123.722 Y84.847 E15.68505
G1 X123.825 Y85.255 E15.69905
G1 X123.992 Y86.051 E15.7261
G1 X124.027 Y86.258 E15.73308
G1 X124.125 Y87.007 E15.75821
G1 X124.167 Y87.455 E15.77317
G1 X124.21 Y88.206 E15.79819
G1 X124.226 Y89.017 E15.82517
G1 X124.228 Y89.142 E15.82933
G1 X124.298 Y98.591 E16.14361
G1 X124.298 Y98.736 E16.14844
G1 X124.293 Y99.478 E16.17312
G1 X124.286 Y99.775 E16.183
G1 X124.259 Y100.526 E16.20799
G1 X124.254 Y100.651 E16.21215
G1 X124.194 Y101.902 E16.25381
G1 X124.142 Y105.775 E16.38264
G1 X124.347 Y133.415 E17.30197
G1 X124.347 Y133.547 E17.30636
G1 X124.343 Y134.279 E17.33071
G1 X124.298 Y135.181 E17.36075
G1 X124.173 Y136.075 E17.39077
G1 X123.97 Y136.955 E17.42081
G1 X123.69 Y137.814 E17.45086
G1 X123.335 Y138.644 E17.48088
G1 X122.908 Y139.44 E17.51093
G1 X122.412 Y140.195 E17.54097
G1 X121.852 Y140.903 E17.571
G1 X121.23 Y141.558 E17.60104
G1 X120.554 Y142.157 E17.63108
G1 X119.827 Y142.692 E17.6611
G1 X119.056 Y143.162 E17.69113
G1 X118.246 Y143.562 E17.72118
