;FLAVOR:Marlin
;TIME:1725
;Filament used: 1.16507m
;Layer height: 0.2
;MINX:75.969
;MINY:55.868
;MINZ:0.2
;MAXX:144.031
;MAXY:157.233
;MAXZ:7.8
;Generated with Cura_SteamEngine 4.4.1
M140 S60
M105
M190 S60
M104 S200
M105
M109 S200
M82 ;absolute extrusion mode
M201 X500.00 Y500.00 Z100.00 E5000.00 ;Setup machine max acceleration
M203 X500.00 Y500.00 Z10.00 E50.00 ;Setup machine max feedrate
M204 P500.00 R1000.00 T500.00 ;Setup Print/Retract/Travel acceleration
M205 X8.00 Y8.00 Z0.40 E5.00 ;Setup Jerk
M220 S100 ;Reset Feedrate
M221 S100 ;Reset Flowrate

G28 ;Home

G92 E0 ;Reset Extruder
G1 Z2.0 F3000 ;Move Z Axis up
G1 X10.1 Y20 Z0.28 F5000.0 ;Move to start position
G1 X10.1 Y200.0 Z0.28 F1500.0 E15 ;Draw the first line
G1 X10.4 Y200.0 Z0.28 F5000.0 ;Move to side a little
G1 X10.4 Y20 Z0.28 F1500.0 E30 ;Draw the second line
G92 E0 ;Reset Extruder
G1 Z2.0 F3000 ;Move Z Axis up

G92 E0
G92 E0
G1 F1500 E-6.5
;LAYER_COUNT:39
;LAYER:0
M107
G0 F6000 X78.462 Y62.598 Z0.2
;TYPE:SKIRT
G1 F1500 E0
G1 F1200 X79.083 Y61.896 E0.03117
G1 X79.762 Y61.249 E0.06237
G1 X80.494 Y60.662 E0.09358
G1 X81.665 Y59.912 E0.13983
G1 X82.2 Y59.615 E0.16018
G1 X82.358 Y59.528 E0.16618
G1 X86.074 Y57.544 E0.30629
G1 X86.173 Y57.493 E0.30999
G1 X86.912 Y57.108 E0.3377
G1 X87.761 Y56.71 E0.36889
G1 X88.641 Y56.386 E0.40008
G1 X89.546 Y56.139 E0.43128
G1 X90.468 Y55.969 E0.46246
G1 X91.402 Y55.879 E0.49367
G1 X92.34 Y55.868 E0.52487
G1 X93.275 Y55.938 E0.55606
G1 X94.201 Y56.087 E0.58725
G1 X95.155 Y56.327 E0.61997
G1 X95.305 Y56.372 E0.62518
G1 X96.191 Y56.679 E0.65637
G1 X97.047 Y57.061 E0.68755
G1 X97.868 Y57.515 E0.71875
G1 X98.648 Y58.037 E0.74997
G1 X99.38 Y58.623 E0.78115
G1 X100.059 Y59.269 E0.81232
G1 X100.681 Y59.971 E0.84352
G1 X101.241 Y60.724 E0.87473
G1 X101.745 Y61.539 E0.9066
G1 X102.014 Y62.02 E0.92493
G1 X102.114 Y62.204 E0.9319
G1 X132.2 Y118.493 E3.05472
G1 X142.436 Y137.641 E3.77688
G1 X142.506 Y137.774 E3.78187
G1 X142.809 Y138.36 E3.80382
G1 X143.204 Y139.21 E3.83499
G1 X143.525 Y140.092 E3.86621
G1 X143.77 Y140.997 E3.89739
G1 X143.936 Y141.92 E3.92858
G1 X144.024 Y142.854 E3.95979
G1 X144.031 Y143.792 E3.99099
G1 X143.959 Y144.727 E4.02218
G1 X143.807 Y145.652 E4.05335
G1 X143.571 Y146.584 E4.08533
G1 X143.521 Y146.75 E4.0911
G1 X143.212 Y147.636 E4.12231
G1 X142.829 Y148.492 E4.1535
G1 X142.375 Y149.313 E4.1847
G1 X141.852 Y150.092 E4.21591
G1 X141.265 Y150.823 E4.24709
G1 X140.618 Y151.502 E4.27828
G1 X139.915 Y152.123 E4.30948
G1 X139.162 Y152.682 E4.34067
G1 X138.337 Y153.19 E4.3729
G1 X137.85 Y153.461 E4.39143
G1 X137.686 Y153.55 E4.39764
G1 X133.8 Y155.627 E4.54419
G1 X133.663 Y155.7 E4.54936
G1 X133.055 Y156.014 E4.57212
G1 X132.204 Y156.408 E4.60331
G1 X131.322 Y156.729 E4.63452
G1 X130.417 Y156.973 E4.6657
G1 X129.494 Y157.139 E4.69689
G1 X128.56 Y157.226 E4.72809
G1 X127.622 Y157.233 E4.75929
G1 X126.687 Y157.161 E4.79048
G1 X125.762 Y157.008 E4.82166
G1 X124.852 Y156.778 E4.85288
G1 X123.966 Y156.471 E4.88407
G1 X123.523 Y156.285 E4.90005
G1 X123.355 Y156.21 E4.90617
G1 X122.516 Y155.791 E4.93736
G1 X121.715 Y155.303 E4.96856
G1 X120.959 Y154.748 E4.99975
G1 X120.253 Y154.13 E5.03096
G1 X119.602 Y153.455 E5.06215
G1 X119.011 Y152.727 E5.09334
G1 X118.484 Y151.951 E5.12453
G1 X118.207 Y151.477 E5.14279
G1 X117.891 Y150.904 E5.16456
G1 X117.822 Y150.777 E5.16937
G1 X87.8 Y94.61 E7.28761
G1 X77.548 Y75.431 E8.01092
G1 X77.474 Y75.292 E8.01616
G1 X77.187 Y74.736 E8.03697
G1 X76.793 Y73.885 E8.06816
G1 X76.473 Y73.003 E8.09937
G1 X76.229 Y72.098 E8.13054
G1 X76.063 Y71.174 E8.16177
G1 X75.976 Y70.241 E8.19293
G1 X75.969 Y69.303 E8.22413
G1 X76.042 Y68.368 E8.25532
G1 X76.194 Y67.442 E8.28654
G1 X76.318 Y66.913 E8.30461
G1 X76.36 Y66.752 E8.31014
G1 X76.635 Y65.856 E8.34131
G1 X76.986 Y64.986 E8.37252
G1 X77.409 Y64.149 E8.40371
G1 X77.903 Y63.351 E8.43492
G1 X78.462 Y62.598 E8.46612
G0 F6000 X78.826 Y62.785
G1 F1200 X79.442 Y62.101 E8.49673
G1 X80.115 Y61.473 E8.52735
G1 X80.84 Y60.905 E8.55798
G1 X81.859 Y60.261 E8.59807
G1 X82.394 Y59.964 E8.61843
G1 X82.547 Y59.881 E8.62422
G1 X86.263 Y57.897 E8.76432
G1 X86.357 Y57.847 E8.76786
G1 X87.096 Y57.462 E8.79558
G1 X87.931 Y57.073 E8.82622
G1 X88.795 Y56.757 E8.85682
G1 X89.684 Y56.518 E8.88743
G1 X90.591 Y56.356 E8.91808
G1 X91.508 Y56.274 E8.9487
G1 X92.428 Y56.272 E8.9793
G1 X93.346 Y56.35 E9.00994
G1 X94.253 Y56.507 E9.04056
G1 X95.04 Y56.71 E9.06759
G1 X95.19 Y56.755 E9.0728
G1 X96.059 Y57.058 E9.10341
G1 X96.899 Y57.435 E9.13403
G1 X97.703 Y57.883 E9.16464
G1 X98.466 Y58.399 E9.19528
G1 X99.18 Y58.98 E9.2259
G1 X99.841 Y59.62 E9.2565
G1 X100.445 Y60.316 E9.28715
G1 X100.986 Y61.061 E9.31777
G1 X101.396 Y61.734 E9.34398
G1 X101.665 Y62.215 E9.36231
G1 X101.761 Y62.392 E9.36901
G1 X131.847 Y118.681 E11.49183
G1 X142.083 Y137.829 E12.21399
G1 X142.151 Y137.957 E12.21881
G1 X142.454 Y138.543 E12.24075
G1 X142.841 Y139.379 E12.27139
G1 X143.154 Y140.245 E12.30202
G1 X143.39 Y141.134 E12.33261
G1 X143.549 Y142.041 E12.36324
G1 X143.628 Y142.958 E12.39385
G1 X143.628 Y143.879 E12.42448
G1 X143.547 Y144.796 E12.4551
G1 X143.387 Y145.703 E12.48573
G1 X143.188 Y146.469 E12.51205
G1 X143.138 Y146.635 E12.51782
G1 X142.834 Y147.504 E12.54844
G1 X142.456 Y148.344 E12.57908
G1 X142.007 Y149.147 E12.60968
G1 X141.49 Y149.909 E12.6403
G1 X140.908 Y150.623 E12.67094
G1 X140.267 Y151.284 E12.70157
G1 X139.571 Y151.886 E12.73217
G1 X138.825 Y152.426 E12.7628
G1 X138.142 Y152.84 E12.78937
G1 X137.655 Y153.111 E12.8079
G1 X137.498 Y153.197 E12.81386
G1 X133.612 Y155.274 E12.96041
G1 X133.479 Y155.344 E12.96541
G1 X132.871 Y155.658 E12.98817
G1 X132.035 Y156.045 E13.01881
G1 X131.169 Y156.357 E13.04943
G1 X130.28 Y156.594 E13.08003
G1 X129.373 Y156.752 E13.11065
G1 X128.455 Y156.831 E13.14129
G1 X127.535 Y156.829 E13.17189
G1 X126.618 Y156.749 E13.20251
G1 X125.711 Y156.588 E13.23315
G1 X124.822 Y156.35 E13.26376
G1 X123.686 Y155.919 E13.30417
G1 X123.518 Y155.844 E13.31029
G1 X122.694 Y155.433 E13.34091
G1 X121.91 Y154.951 E13.37152
G1 X121.169 Y154.404 E13.40216
G1 X120.48 Y153.794 E13.43276
G1 X119.846 Y153.127 E13.46337
G1 X119.272 Y152.407 E13.494
G1 X118.557 Y151.284 E13.53828
G1 X118.241 Y150.711 E13.56004
G1 X118.175 Y150.589 E13.56465
G1 X88.153 Y94.422 E15.6829
G1 X77.901 Y75.243 E16.40621
G1 X77.83 Y75.108 E16.41128
G1 X77.543 Y74.552 E16.43209
G1 X77.156 Y73.716 E16.46273
G1 X76.844 Y72.85 E16.49335
G1 X76.608 Y71.96 E16.52397
G1 X76.45 Y71.053 E16.55459
G1 X76.371 Y70.136 E16.58521
G1 X76.373 Y69.216 E16.61581
G1 X76.454 Y68.298 E16.64646
G1 X76.705 Y67.014 E16.68997
G1 X76.747 Y66.853 E16.69551
G1 X77.018 Y65.973 E16.72613
G1 X77.364 Y65.12 E16.75675
G1 X77.783 Y64.301 E16.78735
G1 X78.272 Y63.52 E16.81799
G1 X78.826 Y62.785 E16.84861
G0 F6000 X79.19 Y62.973
G1 F1200 X79.8 Y62.308 E16.87862
G1 X80.467 Y61.699 E16.90866
G1 X81.185 Y61.151 E16.9387
G1 X82.053 Y60.611 E16.9727
G1 X82.588 Y60.314 E16.99306
G1 X82.735 Y60.234 E16.99862
G1 X86.451 Y58.25 E17.13873
G1 X86.542 Y58.202 E17.14215
G1 X87.281 Y57.817 E17.16987
G1 X88.1 Y57.436 E17.19991
G1 X88.949 Y57.128 E17.22995
G1 X89.822 Y56.897 E17.25998
G1 X90.712 Y56.744 E17.29002
G1 X91.612 Y56.67 E17.32005
G1 X92.515 Y56.676 E17.35009
G1 X93.414 Y56.762 E17.38013
G1 X94.302 Y56.928 E17.41017
G1 X94.925 Y57.093 E17.43161
G1 X95.075 Y57.138 E17.43682
G1 X95.928 Y57.436 E17.46687
G1 X96.751 Y57.808 E17.49691
G1 X97.538 Y58.251 E17.52695
G1 X98.282 Y58.762 E17.55697
G1 X98.979 Y59.337 E17.58702
G1 X99.622 Y59.971 E17.61705
G1 X100.206 Y60.659 E17.64707
G1 X100.727 Y61.397 E17.67711
G1 X101.046 Y61.929 E17.69775
G1 X101.315 Y62.41 E17.71608
G1 X101.409 Y62.581 E17.72257
G1 X131.495 Y118.87 E19.84539
G1 X141.731 Y138.018 E20.56754
G1 X141.795 Y138.141 E20.57216
G1 X142.098 Y138.727 E20.5941
G1 X142.477 Y139.547 E20.62414
G1 X142.782 Y140.397 E20.65418
G1 X143.011 Y141.271 E20.68423
G1 X143.161 Y142.161 E20.71425
G1 X143.232 Y143.062 E20.74431
G1 X143.223 Y143.965 E20.77434
G1 X143.134 Y144.863 E20.80436
G1 X142.966 Y145.751 E20.83442
G1 X142.805 Y146.354 E20.85517
G1 X142.755 Y146.52 E20.86094
G1 X142.456 Y147.372 E20.89097
G1 X142.083 Y148.195 E20.92103
G1 X141.639 Y148.981 E20.95105
G1 X141.128 Y149.725 E20.98107
G1 X140.552 Y150.421 E21.01112
G1 X139.917 Y151.063 E21.04115
G1 X139.228 Y151.647 E21.07119
G1 X138.49 Y152.167 E21.10122
G1 X137.948 Y152.491 E21.12222
G1 X137.461 Y152.762 E21.14076
G1 X137.309 Y152.845 E21.14652
G1 X133.423 Y154.922 E21.29307
G1 X133.295 Y154.989 E21.29788
G1 X132.687 Y155.303 E21.32064
G1 X131.867 Y155.681 E21.35067
G1 X131.017 Y155.986 E21.38071
G1 X130.143 Y156.214 E21.41075
G1 X129.253 Y156.364 E21.44077
G1 X128.352 Y156.434 E21.47082
G1 X127.449 Y156.425 E21.50086
G1 X126.551 Y156.336 E21.53087
G1 X125.663 Y156.167 E21.56094
G1 X124.795 Y155.921 E21.59095
G1 X123.849 Y155.554 E21.62469
G1 X123.681 Y155.479 E21.63081
G1 X122.873 Y155.075 E21.66086
G1 X122.105 Y154.601 E21.69088
G1 X121.381 Y154.06 E21.72094
G1 X120.708 Y153.458 E21.75097
G1 X120.091 Y152.799 E21.781
G1 X119.535 Y152.087 E21.81104
G1 X118.907 Y151.091 E21.8502
G1 X118.591 Y150.518 E21.87197
G1 X118.527 Y150.4 E21.87643
G1 X88.505 Y94.233 E23.99468
G1 X78.253 Y75.054 E24.71799
G1 X78.185 Y74.925 E24.72284
G1 X77.898 Y74.369 E24.74365
G1 X77.52 Y73.549 E24.77368
G1 X77.216 Y72.698 E24.80374
G1 X76.988 Y71.824 E24.83378
G1 X76.838 Y70.934 E24.8638
G1 X76.768 Y70.033 E24.89386
G1 X76.777 Y69.13 E24.92389
G1 X76.867 Y68.232 E24.95391
G1 X77.092 Y67.115 E24.99181
G1 X77.134 Y66.954 E24.99734
G1 X77.401 Y66.091 E25.02739
G1 X77.742 Y65.255 E25.05742
G1 X78.157 Y64.453 E25.08745
G1 X78.64 Y63.69 E25.11749
G1 X79.19 Y62.973 E25.14754
G1 F1500 E18.64754
G0 F6000 X86.756 Y68.897
G0 X87.163 Y69.659
;TYPE:SUPPORT-INTERFACE
G1 F1500 E25.14754
G1 F1200 X87.916 Y69.257 E25.17593
G1 X102.03 Y95.659 E26.17167
G1 X128.741 Y145.631 E28.05628
G1 X128.551 Y145.735 E28.06348
G1 X127.996 Y146.032 E28.08442
G1 X127.989 Y146.036 E28.08469
G1 X127.985 Y146.035 E28.08483
G1 X97.655 Y89.289 E30.22488
G1 X87.162 Y69.662 E30.96511
G1 X87.163 Y69.659 E30.96522
G1 F1500 E24.46522
G0 F6000 X86.756 Y68.897
G0 X90.851 Y66.709
G0 X91.258 Y67.471
G1 F1500 E30.96522
G1 F1200 X91.445 Y67.371 E30.97227
G1 X91.647 Y67.263 E30.97989
G1 X92.015 Y67.068 E30.99374
G1 X122.345 Y123.813 E33.13377
G1 X132.838 Y143.44 E33.874
G1 X132.837 Y143.443 E33.87411
G1 X132.084 Y143.845 E33.9025
G1 X117.97 Y117.443 E34.89823
G1 X91.258 Y67.471 E36.78286
G0 F6000 X91.682 Y67.841
G1 F1200 X92.02 Y67.503 E36.79876
G0 F6000 X91.773 Y68.015
G1 F1200 X92.891 Y69.133 E36.85135
G0 F6000 X93.202 Y69.715
G1 F1200 X92.864 Y70.053 E36.86725
G0 F6000 X94.384 Y71.926
G1 F1200 X94.046 Y72.264 E36.88314
G0 F6000 X95.566 Y74.138
G1 F1200 X95.228 Y74.476 E36.89904
G0 F6000 X95.671 Y75.306
G1 F1200 X96.789 Y76.424 E36.95163
G0 F6000 X96.749 Y76.35
G1 F1200 X96.411 Y76.688 E36.96753
G0 F6000 X97.931 Y78.562
G1 F1200 X97.593 Y78.9 E36.98343
G0 F6000 X99.113 Y80.774
G1 F1200 X98.775 Y81.112 E36.99932
G0 F6000 X99.569 Y82.599
G1 F1200 X100.687 Y83.716 E37.05189
G0 F6000 X99.958 Y83.324
G1 F1200 X100.296 Y82.986 E37.06779
G0 F6000 X101.478 Y85.197
G1 F1200 X101.14 Y85.535 E37.08369
G0 F6000 X102.66 Y87.409
G1 F1200 X102.322 Y87.747 E37.09958
G0 F6000 X103.842 Y89.621
G1 F1200 X103.504 Y89.959 E37.11548
G0 F6000 X103.467 Y89.89
G1 F1200 X104.584 Y91.008 E37.16805
G0 F6000 X105.025 Y91.833
G1 F1200 X104.687 Y92.171 E37.18394
G0 F6000 X106.207 Y94.045
G1 F1200 X105.869 Y94.383 E37.19984
G0 F6000 X107.389 Y96.257
G1 F1200 X107.051 Y96.595 E37.21574
G0 F6000 X107.365 Y97.183
G1 F1200 X108.482 Y98.3 E37.26828
G0 F6000 X108.572 Y98.468
G1 F1200 X108.234 Y98.806 E37.28418
G0 F6000 X109.754 Y100.68
G1 F1200 X109.416 Y101.018 E37.30008
G0 F6000 X110.936 Y102.892
G1 F1200 X110.598 Y103.23 E37.31598
G0 F6000 X111.263 Y104.475
G1 F1200 X112.38 Y105.592 E37.36852
G0 F6000 X112.118 Y105.104
G1 F1200 X111.78 Y105.442 E37.38442
G0 F6000 X113.301 Y107.316
G1 F1200 X112.963 Y107.654 E37.40031
G0 F6000 X114.483 Y109.528
G1 F1200 X114.145 Y109.866 E37.41621
G0 F6000 X115.161 Y111.767
G1 F1200 X116.278 Y112.883 E37.46873
G0 F6000 X116.847 Y113.951
G1 F1200 X116.51 Y114.288 E37.48458
G0 F6000 X118.03 Y116.163
G1 F1200 X117.692 Y116.5 E37.50046
G0 F6000 X119.212 Y118.375
G1 F1200 X118.875 Y118.712 E37.51631
G0 F6000 X119.059 Y119.059
G1 F1200 X120.175 Y120.175 E37.5688
G0 F6000 X120.394 Y120.587
G1 F1200 X120.057 Y120.924 E37.58465
G0 F6000 X121.577 Y122.798
G1 F1200 X121.239 Y123.136 E37.60055
G0 F6000 X122.759 Y125.01
G1 F1200 X122.422 Y125.348 E37.61643
G0 F6000 X122.958 Y126.352
G1 F1200 X124.073 Y127.468 E37.6689
G0 F6000 X123.941 Y127.222
G1 F1200 X123.604 Y127.559 E37.68475
G0 F6000 X125.123 Y129.434
G1 F1200 X124.787 Y129.771 E37.70057
G0 F6000 X126.306 Y131.645
G1 F1200 X125.969 Y131.982 E37.71643
G0 F6000 X126.857 Y133.646
G1 F1200 X127.972 Y134.76 E37.76885
G0 F6000 X127.151 Y134.194
G1 F1200 X127.489 Y133.857 E37.78472
G0 F6000 X128.671 Y136.069
G1 F1200 X128.334 Y136.406 E37.80058
G0 F6000 X129.853 Y138.281
G1 F1200 X129.516 Y138.618 E37.81643
G0 F6000 X131.036 Y140.492
G1 F1200 X130.699 Y140.829 E37.83228
G0 F6000 X130.757 Y140.939
G1 F1200 X131.871 Y142.053 E37.88468
G0 F6000 X132.218 Y142.704
G1 F1200 X131.881 Y143.041 E37.90053
G1 F1500 E31.40053
G0 F6000 X132.667 Y144.513
G0 X129.242 Y146.342
G0 X128.349 Y145.319
G1 F1500 E37.90053
G1 F1200 X127.231 Y144.201 E37.95312
G0 F6000 X127.265 Y144.263
G1 F1200 X127.603 Y143.925 E37.96901
G0 F6000 X126.082 Y142.052
G1 F1200 X126.42 Y141.714 E37.98491
G0 F6000 X124.9 Y139.84
G1 F1200 X125.238 Y139.502 E38.00081
G0 F6000 X124.451 Y138.027
G1 F1200 X123.333 Y136.91 E38.05338
G0 F6000 X123.718 Y137.628
G1 F1200 X124.056 Y137.29 E38.06927
G0 F6000 X122.535 Y135.416
G1 F1200 X122.873 Y135.078 E38.08517
G0 F6000 X121.353 Y133.204
G1 F1200 X121.691 Y132.866 E38.10107
G0 F6000 X120.171 Y130.992
G1 F1200 X120.509 Y130.654 E38.11697
G0 F6000 X120.553 Y130.735
G1 F1200 X119.436 Y129.619 E38.16949
G0 F6000 X118.989 Y128.781
G1 F1200 X119.327 Y128.443 E38.18538
G0 F6000 X117.806 Y126.569
G1 F1200 X118.144 Y126.231 E38.20128
G0 F6000 X116.624 Y124.357
G1 F1200 X116.962 Y124.019 E38.21718
G0 F6000 X116.655 Y123.443
G1 F1200 X115.539 Y122.327 E38.26967
G0 F6000 X115.442 Y122.144
G1 F1200 X115.78 Y121.807 E38.28555
G0 F6000 X114.26 Y119.933
G1 F1200 X114.597 Y119.595 E38.30142
G0 F6000 X113.078 Y117.721
G1 F1200 X113.415 Y117.383 E38.3173
G0 F6000 X112.758 Y116.152
G1 F1200 X111.642 Y115.036 E38.36979
G0 F6000 X111.896 Y115.509
G1 F1200 X112.233 Y115.172 E38.38564
G0 F6000 X110.713 Y113.297
G1 F1200 X111.051 Y112.96 E38.40152
G0 F6000 X109.531 Y111.085
G1 F1200 X109.868 Y110.748 E38.41737
G0 F6000 X108.86 Y108.86
G1 F1200 X107.745 Y107.745 E38.46982
G0 F6000 X107.166 Y106.662
G1 F1200 X107.504 Y106.324 E38.48572
G0 F6000 X105.984 Y104.45
G1 F1200 X106.321 Y104.112 E38.50159
G0 F6000 X104.802 Y102.238
G1 F1200 X105.139 Y101.901 E38.51744
G0 F6000 X104.962 Y101.568
G1 F1200 X103.847 Y100.453 E38.56989
G0 F6000 X103.62 Y100.026
G1 F1200 X103.957 Y99.689 E38.58574
G0 F6000 X102.437 Y97.814
G1 F1200 X102.775 Y97.477 E38.60161
G0 F6000 X101.255 Y95.602
G1 F1200 X101.592 Y95.265 E38.61747
G0 F6000 X101.064 Y94.276
G1 F1200 X99.95 Y93.162 E38.66987
G0 F6000 X100.073 Y93.391
G1 F1200 X100.41 Y93.053 E38.68574
G0 F6000 X98.891 Y91.179
G1 F1200 X99.228 Y90.842 E38.70159
G0 F6000 X97.708 Y88.967
G1 F1200 X98.046 Y88.63 E38.71747
G0 F6000 X97.166 Y86.984
G1 F1200 X96.052 Y85.87 E38.76987
G0 F6000 X96.863 Y86.418
G1 F1200 X96.526 Y86.755 E38.78572
G0 F6000 X95.344 Y84.543
G1 F1200 X95.68 Y84.207 E38.80152
G0 F6000 X94.161 Y82.331
G1 F1200 X94.498 Y81.995 E38.81735
G0 F6000 X92.979 Y80.12
G1 F1200 X93.316 Y79.783 E38.8332
G0 F6000 X93.268 Y79.691
G1 F1200 X92.154 Y78.577 E38.8856
G0 F6000 X91.797 Y77.908
G1 F1200 X92.133 Y77.571 E38.90143
G0 F6000 X90.615 Y75.696
G1 F1200 X90.951 Y75.359 E38.91726
G0 F6000 X89.432 Y73.484
G1 F1200 X89.769 Y73.148 E38.93308
G0 F6000 X89.369 Y72.398
G1 F1200 X88.256 Y71.285 E38.98544
G0 F6000 X88.249 Y71.273
G1 F1200 X88.587 Y70.936 E39.00131
